#define errlist_width 304
#define errlist_height 340
static unsigned char errlist_bits[] = {
  0x00, 0x00, 0x00, 0x00, 0x00, 0x00, 0x00, 0x00, 0x00, 0x00, 0x00, 0x00,
  0x00, 0x00, 0x00, 0x00, 0x00, 0x00, 0x00, 0x00, 0x00, 0x00, 0x00, 0x00,
  0x00, 0x00, 0x00, 0x00, 0x00, 0x00, 0x00, 0x00, 0x00, 0x00, 0x00, 0x00,
  0x00, 0x00, 0x00, 0x00, 0x00, 0x00, 0x00, 0x00, 0x00, 0x00, 0x00, 0x00,
  0x00, 0x00, 0x00, 0x00, 0x00, 0x00, 0x00, 0x00, 0x00, 0x00, 0x00, 0x00,
  0x00, 0x00, 0x00, 0x00, 0x00, 0x00, 0x00, 0x00, 0x00, 0x00, 0x00, 0x00,
  0x00, 0x00, 0x00, 0x00, 0x00, 0x00, 0x00, 0x00, 0x00, 0x00, 0x00, 0x00,
  0x00, 0x00, 0x00, 0x00, 0x00, 0x00, 0x00, 0x00, 0x00, 0x00, 0x00, 0x00,
  0x00, 0x00, 0x00, 0x00, 0x00, 0x00, 0x00, 0x00, 0x00, 0x00, 0x00, 0x00,
  0x00, 0x00, 0x00, 0x00, 0x00, 0x00, 0x00, 0x00, 0x00, 0x00, 0x00, 0x00,
  0x00, 0x00, 0x00, 0x00, 0x00, 0x00, 0x00, 0x00, 0x00, 0x00, 0x00, 0x00,
  0x00, 0x00, 0x00, 0x00, 0x00, 0x00, 0x00, 0x00, 0x00, 0x00, 0x00, 0x00,
  0x00, 0x00, 0x00, 0x00, 0x00, 0x00, 0x00, 0x00, 0x00, 0x00, 0x00, 0x00,
  0x00, 0x00, 0x00, 0x14, 0x00, 0x00, 0x00, 0x00, 0x00, 0x00, 0x00, 0x00,
  0x00, 0x00, 0x00, 0x00, 0x00, 0x00, 0x00, 0x00, 0x00, 0x00, 0x00, 0x28,
  0x00, 0x00, 0x00, 0x00, 0x00, 0x00, 0x00, 0x00, 0x00, 0x00, 0x00, 0x00,
  0x00, 0x00, 0x00, 0x00, 0x00, 0x00, 0x00, 0x00, 0x00, 0x00, 0x00, 0x00,
  0x00, 0x00, 0x00, 0x00, 0x00, 0x00, 0x00, 0x00, 0x00, 0x00, 0x00, 0x00,
  0x00, 0x00, 0x00, 0x00, 0x00, 0x00, 0x00, 0x00, 0x00, 0x00, 0x00, 0x00,
  0x00, 0x78, 0xe7, 0x00, 0x00, 0x00, 0xf0, 0x9c, 0xa7, 0x05, 0xf3, 0x14,
  0x39, 0x00, 0x00, 0x00, 0x00, 0x00, 0x00, 0x00, 0x00, 0xf0, 0xce, 0x01,
  0x00, 0x00, 0xe0, 0x39, 0x4f, 0x0b, 0xe6, 0x29, 0x72, 0x00, 0x00, 0x00,
  0x00, 0x00, 0x00, 0x08, 0x29, 0x01, 0x00, 0x00, 0x10, 0xa2, 0x68, 0x84,
  0x14, 0x35, 0x05, 0x00, 0x00, 0x00, 0x00, 0x00, 0x00, 0x00, 0x00, 0x10,
  0x52, 0x02, 0x00, 0x00, 0x20, 0x44, 0xd1, 0x08, 0x29, 0x6a, 0x0a, 0x00,
  0x00, 0x00, 0x00, 0x00, 0x00, 0x78, 0xe7, 0x00, 0x00, 0x00, 0xf0, 0xa2,
  0xa7, 0x84, 0xf4, 0x54, 0x75, 0x00, 0x00, 0x00, 0x00, 0x00, 0x00, 0x00,
  0x00, 0xf0, 0xce, 0x01, 0x00, 0x00, 0xe0, 0x45, 0x4f, 0x09, 0xe9, 0xa9,
  0xea, 0x00, 0x00, 0x00, 0x00, 0x00, 0x00, 0x08, 0x29, 0x01, 0x00, 0x00,
  0x10, 0xa2, 0xa8, 0x84, 0x17, 0x95, 0x45, 0x00, 0x00, 0x00, 0x00, 0x00,
  0x00, 0x00, 0x00, 0x10, 0x52, 0x02, 0x00, 0x00, 0x20, 0x44, 0x51, 0x09,
  0x2f, 0x2a, 0x8b, 0x00, 0x00, 0x00, 0x00, 0x00, 0x00, 0x78, 0x29, 0x01,
  0x00, 0x00, 0x10, 0x9c, 0x28, 0xbd, 0x14, 0x15, 0x79, 0x00, 0x00, 0x00,
  0x00, 0x00, 0x00, 0x00, 0x00, 0xf0, 0x52, 0x02, 0x00, 0x00, 0x20, 0x38,
  0x51, 0x7a, 0x29, 0x2a, 0xf2, 0x00, 0x00, 0x00, 0x00, 0x00, 0x00, 0x00,
  0x00, 0x00, 0x00, 0x00, 0x00, 0x00, 0x00, 0x00, 0x00, 0x00, 0x00, 0x00,
  0x00, 0x00, 0x00, 0x00, 0x00, 0x00, 0x00, 0x00, 0x00, 0x00, 0x00, 0x00,
  0x00, 0x00, 0x00, 0x00, 0x00, 0x00, 0x00, 0x00, 0x00, 0x00, 0x00, 0x00,
  0x00, 0x00, 0x00, 0x00, 0x00, 0x00, 0x00, 0x00, 0x00, 0x00, 0x00, 0x00,
  0x00, 0x00, 0x00, 0x00, 0x00, 0x00, 0x00, 0x00, 0x00, 0x00, 0x00, 0x00,
  0x00, 0x00, 0x00, 0x00, 0x00, 0x00, 0x00, 0x00, 0x00, 0x00, 0x00, 0x00,
  0x00, 0x00, 0x00, 0x00, 0x00, 0x00, 0x00, 0x00, 0x00, 0x00, 0x00, 0x00,
  0x00, 0x00, 0x00, 0x00, 0x00, 0x00, 0x00, 0x00, 0x00, 0x00, 0x00, 0x00,
  0x00, 0x00, 0x00, 0x00, 0x00, 0x00, 0x00, 0x00, 0x00, 0x00, 0x00, 0x00,
  0x00, 0x00, 0x00, 0x00, 0x00, 0x00, 0x00, 0x00, 0x00, 0x00, 0x00, 0x00,
  0x00, 0x00, 0x00, 0x00, 0x00, 0x00, 0x00, 0x00, 0x00, 0x00, 0x00, 0x00,
  0x00, 0x00, 0x00, 0x00, 0x00, 0x00, 0x00, 0x00, 0x00, 0x00, 0x00, 0x00,
  0x00, 0x00, 0x00, 0x00, 0x00, 0x00, 0x00, 0x00, 0x00, 0x00, 0x00, 0x00,
  0x00, 0x00, 0x00, 0x00, 0x00, 0x00, 0x00, 0x00, 0x00, 0x00, 0x00, 0x00,
  0x00, 0x00, 0x00, 0x00, 0x00, 0x00, 0x00, 0x00, 0x00, 0x00, 0x00, 0x00,
  0x00, 0x00, 0x00, 0x00, 0x00, 0x00, 0x00, 0x00, 0x00, 0x00, 0x00, 0x00,
  0x00, 0x00, 0x00, 0x00, 0x00, 0x00, 0x00, 0x00, 0x00, 0x00, 0x00, 0x00,
  0x00, 0x00, 0x00, 0x00, 0x00, 0x00, 0x00, 0x00, 0x00, 0x00, 0x00, 0x00,
  0x00, 0x00, 0x00, 0x00, 0x00, 0x00, 0x00, 0x00, 0x00, 0x00, 0x00, 0x00,
  0x00, 0x00, 0x00, 0x00, 0x00, 0x00, 0x00, 0x00, 0x00, 0x00, 0x00, 0x00,
  0x00, 0x00, 0x00, 0x00, 0x00, 0x00, 0x00, 0x00, 0x00, 0x00, 0x00, 0x00,
  0x00, 0x00, 0x00, 0x00, 0x00, 0x00, 0x00, 0x00, 0x00, 0x00, 0x00, 0x00,
  0x00, 0x00, 0x00, 0x00, 0x00, 0x00, 0x00, 0x00, 0x00, 0x00, 0x00, 0x00,
  0x00, 0x00, 0x00, 0x00, 0x00, 0x00, 0x00, 0x00, 0x00, 0x00, 0x00, 0x00,
  0x00, 0x00, 0x00, 0x00, 0x00, 0x00, 0x00, 0x00, 0x00, 0x00, 0x00, 0x00,
  0x00, 0x00, 0x00, 0x00, 0x00, 0x00, 0x00, 0x00, 0x00, 0x00, 0x00, 0x00,
  0x00, 0x00, 0x00, 0x00, 0x00, 0x00, 0x00, 0x00, 0x00, 0x00, 0x00, 0x00,
  0x00, 0x00, 0x00, 0x00, 0x00, 0x00, 0x00, 0x00, 0x00, 0x00, 0x00, 0x00,
  0x00, 0x00, 0x00, 0x00, 0x00, 0x00, 0x00, 0x00, 0x00, 0x00, 0x00, 0x00,
  0x00, 0x00, 0x00, 0x00, 0x00, 0x00, 0x00, 0x00, 0x00, 0x00, 0x00, 0x00,
  0x00, 0x00, 0x00, 0x70, 0x02, 0x00, 0x08, 0x54, 0x00, 0x00, 0x00, 0x00,
  0x00, 0x00, 0x00, 0x00, 0x00, 0x00, 0x00, 0x00, 0x00, 0x00, 0x80, 0x12,
  0x00, 0x60, 0x02, 0x00, 0x00, 0x00, 0x00, 0x00, 0x00, 0x00, 0x00, 0x00,
  0x00, 0x00, 0x00, 0x0c, 0x02, 0x08, 0x82, 0x00, 0x00, 0x42, 0x00, 0x00,
  0x00, 0x00, 0x00, 0x00, 0x00, 0x00, 0x00, 0x00, 0x00, 0x18, 0x00, 0x2f,
  0x92, 0x82, 0x80, 0x00, 0x02, 0x50, 0x4f, 0x91, 0x02, 0x00, 0x00, 0x00,
  0x00, 0x00, 0x00, 0x00, 0x00, 0x12, 0x03, 0x70, 0xaa, 0x71, 0x1c, 0x56,
  0xe6, 0x00, 0x00, 0x00, 0x00, 0x00, 0x00, 0x00, 0x00, 0x00, 0x00, 0x24,
  0x00, 0x01, 0x86, 0xb2, 0x99, 0x61, 0xca, 0x00, 0x51, 0x1b, 0x00, 0x00,
  0x00, 0x00, 0x00, 0x00, 0x00, 0x00, 0xa0, 0x88, 0x02, 0x80, 0xaa, 0x90,
  0x12, 0x52, 0x29, 0x01, 0x00, 0x00, 0x00, 0x00, 0x00, 0x00, 0x00, 0x00,
  0x00, 0x24, 0x00, 0x27, 0x92, 0xaa, 0xa4, 0x90, 0xa6, 0x00, 0x51, 0x1b,
  0x00, 0x00, 0x00, 0x00, 0x00, 0x00, 0x00, 0x00, 0x40, 0xd0, 0x03, 0x88,
  0xaa, 0x90, 0x12, 0x52, 0x25, 0x01, 0x00, 0x00, 0x00, 0x00, 0x00, 0x00,
  0x00, 0x00, 0x00, 0x24, 0x00, 0x21, 0x92, 0xaa, 0x94, 0x90, 0xa6, 0x00,
  0x51, 0x15, 0x00, 0x00, 0x00, 0x00, 0x00, 0x00, 0x00, 0x00, 0xa0, 0x12,
  0x02, 0x70, 0x32, 0x71, 0x1c, 0x52, 0x2e, 0x01, 0x00, 0x00, 0x00, 0x00,
  0x00, 0x00, 0x00, 0x00, 0x00, 0x18, 0x00, 0x2f, 0x94, 0x32, 0x39, 0x61,
  0xca, 0x00, 0x4f, 0x15, 0x00, 0x00, 0x00, 0x00, 0x00, 0x00, 0x00, 0x00,
  0x00, 0x0c, 0x02, 0x00, 0x00, 0x10, 0x00, 0x00, 0x00, 0x00, 0x00, 0x00,
  0x00, 0x00, 0x00, 0x00, 0x00, 0x00, 0x00, 0x00, 0x00, 0x20, 0x00, 0x00,
  0x00, 0x00, 0x00, 0x00, 0x00, 0x00, 0x00, 0x00, 0x00, 0x00, 0x00, 0x00,
  0x00, 0x00, 0x00, 0x00, 0x00, 0x00, 0x00, 0x10, 0x00, 0x00, 0x00, 0x00,
  0x00, 0x00, 0x00, 0x00, 0x00, 0x00, 0x00, 0x00, 0x00, 0x00, 0x00, 0x10,
  0x00, 0x00, 0x00, 0x00, 0x00, 0x00, 0x00, 0x00, 0x00, 0x00, 0x00, 0x00,
  0x00, 0x00, 0x00, 0x00, 0x00, 0x00, 0x00, 0x00, 0x00, 0x00, 0x00, 0x00,
  0x00, 0x00, 0x00, 0x00, 0x00, 0x00, 0x00, 0x00, 0x00, 0x00, 0x00, 0x00,
  0x00, 0x00, 0x00, 0x00, 0x00, 0x00, 0x00, 0x00, 0x00, 0x00, 0x00, 0x00,
  0x00, 0x00, 0x00, 0x00, 0x00, 0x00, 0x00, 0xcc, 0x01, 0x70, 0x02, 0x80,
  0x00, 0x00, 0x00, 0x80, 0x40, 0x40, 0x88, 0x14, 0x80, 0x00, 0x00, 0x00,
  0x00, 0x00, 0x00, 0x00, 0x00, 0x00, 0x40, 0x08, 0x00, 0x00, 0x00, 0x00,
  0x00, 0x00, 0x00, 0x00, 0x00, 0x00, 0x00, 0x00, 0x00, 0x52, 0x00, 0x88,
  0x02, 0x80, 0x00, 0x00, 0x00, 0x40, 0x40, 0x00, 0x88, 0x00, 0x00, 0x00,
  0x00, 0x00, 0x00, 0x10, 0x00, 0x0f, 0x02, 0x80, 0x40, 0x00, 0x10, 0x00,
  0x00, 0x00, 0x00, 0x00, 0x00, 0x00, 0x00, 0x00, 0x00, 0x00, 0xa0, 0xc8,
  0x01, 0x08, 0x8e, 0xb1, 0xb2, 0xfa, 0x7c, 0xdc, 0x4c, 0x54, 0x8e, 0x9c,
  0x9d, 0x8e, 0x03, 0x00, 0x00, 0x18, 0x00, 0x61, 0x82, 0x9d, 0x59, 0xe8,
  0x98, 0x29, 0x00, 0x00, 0x00, 0x00, 0x00, 0x00, 0x00, 0x00, 0x00, 0x00,
  0x40, 0x10, 0x02, 0x08, 0x52, 0x8a, 0x99, 0x2a, 0x95, 0x52, 0x52, 0x54,
  0x89, 0xd2, 0xa4, 0x52, 0x02, 0x00, 0x00, 0x10, 0x00, 0x97, 0x42, 0xa5,
  0x54, 0x28, 0x55, 0x12, 0x00, 0x00, 0x00, 0x00, 0x00, 0x00, 0x00, 0x00,
  0x00, 0x00, 0xa0, 0x52, 0x02, 0x88, 0x52, 0x89, 0xa2, 0x2a, 0x95, 0x52,
  0x4a, 0x48, 0x89, 0x12, 0xa5, 0x52, 0x02, 0x00, 0x00, 0x10, 0x00, 0x51,
  0x42, 0xa5, 0x54, 0x28, 0x55, 0x11, 0x00, 0x00, 0x00, 0x00, 0x00, 0x00,
  0x00, 0x00, 0x00, 0x00, 0x00, 0x8c, 0x01, 0x70, 0x92, 0xb3, 0x1a, 0x2b,
  0x95, 0x5c, 0x5c, 0x48, 0x8e, 0xdc, 0xa4, 0x92, 0x03, 0x00, 0x00, 0x10,
  0x00, 0xe1, 0x82, 0x25, 0x59, 0x28, 0x99, 0x2b, 0x00, 0x00, 0x00, 0x00,
  0x00, 0x00, 0x00, 0x00, 0x00, 0x00, 0x00, 0x00, 0x00, 0x00, 0x00, 0x00,
  0x00, 0x00, 0x00, 0x00, 0x00, 0x00, 0x00, 0x00, 0x00, 0x00, 0x02, 0x00,
  0x00, 0x00, 0x00, 0x00, 0x00, 0x00, 0x00, 0x00, 0x00, 0x00, 0x00, 0x00,
  0x00, 0x00, 0x00, 0x00, 0x00, 0x00, 0x00, 0x00, 0x00, 0x00, 0x00, 0x00,
  0x00, 0x00, 0x00, 0x00, 0x00, 0x00, 0x00, 0x00, 0x00, 0x00, 0x00, 0x80,
  0x01, 0x00, 0x00, 0x00, 0x00, 0x00, 0x00, 0x00, 0x00, 0x00, 0x00, 0x00,
  0x00, 0x00, 0x00, 0x00, 0x00, 0x00, 0x00, 0x00, 0x00, 0x00, 0x00, 0x00,
  0x00, 0x00, 0x00, 0x00, 0x00, 0x00, 0x00, 0x00, 0x00, 0x00, 0x00, 0x00,
  0x00, 0x00, 0x00, 0x00, 0x00, 0x00, 0x00, 0x00, 0x00, 0x00, 0x00, 0x00,
  0x00, 0x00, 0x00, 0x00, 0x00, 0x00, 0x00, 0x00, 0x00, 0x00, 0x00, 0x00,
  0x00, 0x8c, 0x01, 0x70, 0x02, 0x80, 0x00, 0x00, 0x00, 0x80, 0x40, 0x40,
  0x08, 0x08, 0x04, 0x20, 0x00, 0x00, 0x00, 0x10, 0x00, 0x0f, 0x2a, 0x01,
  0x00, 0x00, 0x00, 0x00, 0x00, 0x00, 0x00, 0x20, 0x00, 0x00, 0x00, 0x00,
  0x00, 0x00, 0x00, 0x52, 0xe0, 0x88, 0x02, 0x80, 0x00, 0x00, 0x00, 0x40,
  0x40, 0x00, 0x08, 0x08, 0x00, 0x00, 0x00, 0x00, 0x00, 0x28, 0x80, 0x50,
  0x28, 0x08, 0x08, 0x00, 0x00, 0x04, 0x00, 0x00, 0x00, 0x20, 0x00, 0x00,
  0x00, 0x00, 0x00, 0x00, 0xa0, 0xc8, 0xb1, 0x09, 0x8e, 0xb1, 0xb2, 0xfa,
  0x7c, 0xdc, 0x4c, 0x54, 0x0e, 0xab, 0x55, 0xa7, 0xe3, 0x00, 0x00, 0x20,
  0x80, 0xd0, 0x2a, 0x9b, 0x19, 0x66, 0x1e, 0x94, 0x79, 0x7c, 0xec, 0x38,
  0x03, 0x00, 0x00, 0x00, 0x00, 0x00, 0x40, 0x50, 0x52, 0x09, 0x52, 0x8a,
  0x99, 0x2a, 0x95, 0x52, 0x52, 0x54, 0x89, 0x99, 0x54, 0xa9, 0x94, 0x00,
  0x00, 0x10, 0x80, 0x50, 0xaa, 0x4a, 0x0a, 0x93, 0x2a, 0x4c, 0xaa, 0x94,
  0x2a, 0xa5, 0x04, 0x00, 0x00, 0x00, 0x00, 0x00, 0xa0, 0x52, 0xb2, 0x89,
  0x52, 0x89, 0xa2, 0x2a, 0x95, 0x52, 0x4a, 0x48, 0x09, 0xaa, 0x24, 0xa9,
  0x94, 0x00, 0x00, 0x08, 0x80, 0x50, 0xaa, 0x4a, 0x09, 0x94, 0x2a, 0x4c,
  0xaa, 0x94, 0x2a, 0xa5, 0x04, 0x00, 0x00, 0x00, 0x00, 0x00, 0x00, 0x8c,
  0xe1, 0x70, 0x92, 0xb3, 0x1a, 0x2b, 0x95, 0x5c, 0x5c, 0x48, 0x8e, 0xa9,
  0x24, 0xa9, 0xe4, 0x00, 0x00, 0x38, 0x00, 0x8f, 0x2a, 0x9b, 0x13, 0x63,
  0x2a, 0x94, 0xa9, 0x94, 0x2c, 0x39, 0x03, 0x00, 0x00, 0x00, 0x00, 0x00,
  0x00, 0x00, 0x00, 0x00, 0x00, 0x00, 0x00, 0x00, 0x00, 0x00, 0x00, 0x00,
  0x00, 0x00, 0x00, 0x00, 0x80, 0x00, 0x00, 0x00, 0x00, 0x00, 0x00, 0x00,
  0x00, 0x00, 0x00, 0x00, 0x00, 0x00, 0x00, 0x00, 0x00, 0x00, 0x00, 0x00,
  0x00, 0x00, 0x00, 0x00, 0x00, 0x00, 0x00, 0x00, 0x00, 0x00, 0x00, 0x00,
  0x00, 0x00, 0x00, 0x00, 0x00, 0x00, 0x60, 0x00, 0x00, 0x00, 0x00, 0x00,
  0x00, 0x00, 0x00, 0x00, 0x00, 0x00, 0x00, 0x00, 0x00, 0x00, 0x00, 0x00,
  0x00, 0x00, 0x00, 0x00, 0x00, 0x00, 0x00, 0x00, 0x00, 0x00, 0x00, 0x00,
  0x00, 0x00, 0x00, 0x00, 0x00, 0x00, 0x00, 0x00, 0x00, 0x00, 0x00, 0x00,
  0x00, 0x00, 0x00, 0x00, 0x00, 0x00, 0x00, 0x00, 0x00, 0x00, 0x00, 0x00,
  0x00, 0x00, 0x00, 0x00, 0x00, 0x00, 0x00, 0xcc, 0x03, 0xf0, 0x20, 0x10,
  0x08, 0x00, 0x00, 0x00, 0x90, 0x00, 0x00, 0x00, 0x00, 0x00, 0x00, 0x00,
  0x00, 0x18, 0x00, 0x91, 0x00, 0x00, 0x20, 0x28, 0x00, 0x00, 0x00, 0x00,
  0x00, 0x00, 0x00, 0x00, 0x00, 0x00, 0x00, 0x00, 0x00, 0x12, 0x02, 0x10,
  0x20, 0x10, 0x01, 0x02, 0x00, 0x00, 0x50, 0x00, 0x00, 0x10, 0x00, 0x00,
  0x00, 0x00, 0x00, 0x20, 0x00, 0x11, 0x00, 0x40, 0x10, 0xa8, 0x00, 0x00,
  0x00, 0x00, 0x00, 0x00, 0x00, 0x00, 0x00, 0x00, 0x00, 0x00, 0xa0, 0x08,
  0x01, 0x70, 0x26, 0x57, 0xcb, 0x86, 0x8d, 0x99, 0xd9, 0xcc, 0x3e, 0x36,
  0x00, 0x00, 0x00, 0x00, 0x00, 0x10, 0x00, 0x9b, 0x66, 0xcc, 0xb0, 0xaa,
  0x01, 0x00, 0x00, 0x00, 0x00, 0x00, 0x00, 0x00, 0x00, 0x00, 0x00, 0x00,
  0x40, 0x90, 0x00, 0x10, 0xa9, 0x34, 0xa9, 0x82, 0x52, 0xa4, 0x54, 0x52,
  0x4a, 0x15, 0x00, 0x00, 0x00, 0x00, 0x00, 0x20, 0x00, 0x9b, 0xaa, 0x52,
  0x90, 0xaa, 0x00, 0x00, 0x00, 0x00, 0x00, 0x00, 0x00, 0x00, 0x00, 0x00,
  0x00, 0x00, 0xa0, 0x92, 0x00, 0x10, 0xa5, 0x54, 0xa9, 0x82, 0x4a, 0xa4,
  0x54, 0x52, 0x4a, 0x15, 0x00, 0x00, 0x00, 0x00, 0x00, 0x20, 0x00, 0x95,
  0xaa, 0x4a, 0x90, 0xaa, 0x00, 0x00, 0x00, 0x00, 0x00, 0x00, 0x00, 0x00,
  0x00, 0x00, 0x00, 0x00, 0x00, 0x8c, 0x00, 0x10, 0x2e, 0x57, 0xca, 0x84,
  0x9c, 0x99, 0x58, 0x4c, 0x4a, 0x26, 0x00, 0x00, 0x00, 0x00, 0x00, 0x18,
  0x00, 0x95, 0xaa, 0x9c, 0x10, 0x2b, 0x01, 0x00, 0x00, 0x00, 0x00, 0x00,
  0x00, 0x00, 0x00, 0x00, 0x00, 0x00, 0x00, 0x00, 0x00, 0x00, 0x00, 0x00,
  0x80, 0x00, 0x00, 0x00, 0x00, 0x00, 0x00, 0x00, 0x00, 0x00, 0x00, 0x00,
  0x00, 0x00, 0x00, 0x00, 0x00, 0x00, 0x00, 0x00, 0x00, 0x00, 0x00, 0x00,
  0x00, 0x00, 0x00, 0x00, 0x00, 0x00, 0x00, 0x00, 0x00, 0x00, 0x00, 0x00,
  0x00, 0x00, 0x60, 0x00, 0x00, 0x00, 0x00, 0x00, 0x00, 0x00, 0x00, 0x00,
  0x00, 0x00, 0x00, 0x00, 0x00, 0x00, 0x00, 0x00, 0x00, 0x00, 0x00, 0x00,
  0x00, 0x00, 0x00, 0x00, 0x00, 0x00, 0x00, 0x00, 0x00, 0x00, 0x00, 0x00,
  0x00, 0x00, 0x00, 0x00, 0x00, 0x00, 0x00, 0x00, 0x00, 0x00, 0x00, 0x00,
  0x00, 0x00, 0x00, 0x00, 0x00, 0x00, 0x00, 0x00, 0x00, 0x00, 0x00, 0x00,
  0x00, 0x00, 0x00, 0x00, 0x00, 0x00, 0x00, 0x00, 0x00, 0x00, 0x00, 0x00,
  0x00, 0x8c, 0x01, 0x70, 0x00, 0x00, 0x10, 0x00, 0x00, 0x00, 0x00, 0x00,
  0x00, 0x19, 0xa0, 0x02, 0x00, 0x00, 0x00, 0x20, 0x00, 0x6f, 0x00, 0x00,
  0x00, 0x50, 0x00, 0x40, 0x00, 0x00, 0x00, 0x00, 0x00, 0x00, 0x00, 0x00,
  0x00, 0x00, 0xa0, 0x52, 0xe2, 0x90, 0x00, 0x00, 0x10, 0x00, 0x00, 0x00,
  0x00, 0x08, 0x80, 0x00, 0x10, 0x02, 0x00, 0x00, 0x40, 0x31, 0x00, 0x01,
  0x00, 0x08, 0x41, 0x48, 0x90, 0x40, 0x00, 0x00, 0x00, 0x00, 0x00, 0x00,
  0x00, 0x00, 0x00, 0x00, 0x40, 0x88, 0xb1, 0x91, 0x8c, 0xc9, 0xdc, 0xa4,
  0xcf, 0x63, 0x46, 0x9a, 0x9b, 0x99, 0xb1, 0x32, 0x03, 0x00, 0x80, 0x28,
  0x00, 0x67, 0x06, 0x9b, 0xd9, 0x58, 0xb5, 0x59, 0x00, 0x00, 0x00, 0x00,
  0x00, 0x00, 0x00, 0x00, 0x00, 0x00, 0xa0, 0x50, 0x52, 0x71, 0x52, 0x54,
  0x52, 0xa5, 0x52, 0x95, 0x42, 0x4a, 0xaa, 0xa4, 0x90, 0x4a, 0x05, 0x00,
  0x40, 0x39, 0x00, 0x91, 0x82, 0x49, 0x4a, 0x48, 0x95, 0x54, 0x00, 0x00,
  0x00, 0x00, 0x00, 0x00, 0x00, 0x00, 0x00, 0x00, 0x00, 0x52, 0xb2, 0x91,
  0x4a, 0x54, 0x52, 0xa5, 0x52, 0x55, 0x42, 0x4a, 0xaa, 0xa4, 0x90, 0x2a,
  0x05, 0x00, 0x00, 0x20, 0x00, 0x91, 0x02, 0x4a, 0x4a, 0x48, 0x92, 0x54,
  0x00, 0x00, 0x00, 0x00, 0x00, 0x00, 0x00, 0x00, 0x00, 0x00, 0x00, 0x8c,
  0xe1, 0x90, 0x9c, 0x49, 0x5c, 0xb9, 0x52, 0xe5, 0x82, 0x93, 0xab, 0x98,
  0x90, 0x72, 0x05, 0x00, 0x00, 0x00, 0x00, 0x61, 0x82, 0x91, 0x89, 0x48,
  0x22, 0x59, 0x00, 0x00, 0x00, 0x00, 0x00, 0x00, 0x00, 0x00, 0x00, 0x00,
  0x00, 0x00, 0x00, 0x00, 0x00, 0x00, 0x00, 0x00, 0x00, 0x00, 0x00, 0x00,
  0x00, 0x00, 0x00, 0x00, 0x00, 0x00, 0x00, 0x00, 0x00, 0x00, 0x00, 0x00,
  0x00, 0x00, 0x01, 0x00, 0x00, 0x00, 0x00, 0x00, 0x00, 0x00, 0x00, 0x00,
  0x00, 0x00, 0x00, 0x00, 0x00, 0x00, 0x00, 0x00, 0x00, 0x00, 0x00, 0x00,
  0x00, 0x00, 0x00, 0x00, 0x00, 0x00, 0x00, 0x00, 0x00, 0x00, 0x00, 0x00,
  0x00, 0x00, 0x00, 0x00, 0x00, 0x00, 0x00, 0x00, 0x00, 0x00, 0x00, 0x00,
  0x00, 0x00, 0x00, 0x00, 0x00, 0x00, 0x00, 0x00, 0x00, 0x00, 0x00, 0x00,
  0x00, 0x00, 0x00, 0x00, 0x00, 0x00, 0x00, 0x00, 0x00, 0x00, 0x00, 0x00,
  0x00, 0x00, 0x00, 0x00, 0x00, 0x00, 0x00, 0x00, 0x00, 0x00, 0x00, 0x00,
  0x00, 0x00, 0x00, 0x00, 0x00, 0x00, 0x00, 0x8c, 0x01, 0xf0, 0x0a, 0x00,
  0x10, 0x08, 0x20, 0x00, 0x21, 0x80, 0x00, 0x00, 0x00, 0x00, 0x00, 0x00,
  0x00, 0x38, 0x00, 0x6f, 0x00, 0x00, 0x00, 0x08, 0x10, 0x00, 0x00, 0x00,
  0x00, 0x00, 0x00, 0x00, 0x00, 0x00, 0x00, 0x00, 0x00, 0x52, 0xe2, 0x10,
  0x08, 0x00, 0x10, 0x00, 0x20, 0x00, 0x21, 0x80, 0x00, 0x00, 0x00, 0x00,
  0x00, 0x00, 0x00, 0x08, 0x00, 0x01, 0x00, 0x08, 0x40, 0x00, 0x10, 0x00,
  0x00, 0x00, 0x00, 0x00, 0x00, 0x00, 0x00, 0x00, 0x00, 0x00, 0xa0, 0x48,
  0xb2, 0x71, 0xca, 0x0c, 0x56, 0xab, 0xac, 0xca, 0x39, 0xe7, 0x00, 0x00,
  0x00, 0x00, 0x00, 0x00, 0x00, 0x38, 0x00, 0x67, 0x06, 0x9b, 0xd9, 0x68,
  0x9c, 0x29, 0x00, 0x00, 0x00, 0x00, 0x00, 0x00, 0x00, 0x00, 0x00, 0x00,
  0x40, 0x90, 0x53, 0x11, 0x2a, 0x15, 0x33, 0xa9, 0x66, 0x2a, 0xa5, 0x94,
  0x00, 0x00, 0x00, 0x00, 0x00, 0x00, 0x00, 0x20, 0x00, 0x91, 0x82, 0x49,
  0x4a, 0xa8, 0x52, 0x12, 0x00, 0x00, 0x00, 0x00, 0x00, 0x00, 0x00, 0x00,
  0x00, 0x00, 0xa0, 0x12, 0xb2, 0x11, 0xaa, 0x14, 0x54, 0x49, 0xa8, 0x2a,
  0xa5, 0x94, 0x00, 0x00, 0x00, 0x00, 0x00, 0x00, 0x00, 0x28, 0x00, 0x91,
  0x02, 0x4a, 0x4a, 0xa8, 0x52, 0x11, 0x00, 0x00, 0x00, 0x00, 0x00, 0x00,
  0x00, 0x00, 0x00, 0x00, 0x00, 0x8c, 0xe1, 0x10, 0xca, 0x15, 0x53, 0x49,
  0xa6, 0xc4, 0x39, 0xe7, 0x00, 0x00, 0x00, 0x00, 0x00, 0x00, 0x00, 0x18,
  0x00, 0x61, 0x82, 0x91, 0x89, 0xa8, 0x9c, 0x2b, 0x00, 0x00, 0x00, 0x00,
  0x00, 0x00, 0x00, 0x00, 0x00, 0x00, 0x00, 0x00, 0x00, 0x00, 0x00, 0x00,
  0x00, 0x00, 0x00, 0x04, 0x00, 0x00, 0x00, 0x00, 0x00, 0x00, 0x00, 0x00,
  0x00, 0x00, 0x00, 0x00, 0x00, 0x00, 0x00, 0x00, 0x00, 0x00, 0x00, 0x00,
  0x00, 0x00, 0x00, 0x00, 0x00, 0x00, 0x00, 0x00, 0x00, 0x00, 0x00, 0x00,
  0x00, 0x00, 0x00, 0x00, 0x00, 0x02, 0x00, 0x00, 0x00, 0x00, 0x00, 0x00,
  0x00, 0x00, 0x00, 0x00, 0x00, 0x00, 0x00, 0x00, 0x00, 0x00, 0x00, 0x00,
  0x00, 0x00, 0x00, 0x00, 0x00, 0x00, 0x00, 0x00, 0x00, 0x00, 0x00, 0x00,
  0x00, 0x00, 0x00, 0x00, 0x00, 0x00, 0x00, 0x00, 0x00, 0x00, 0x00, 0x00,
  0x00, 0x00, 0x00, 0x00, 0x00, 0x00, 0x00, 0x40, 0x00, 0x00, 0x10, 0x08,
  0x00, 0x00, 0x00, 0x01, 0x00, 0x00, 0x00, 0x00, 0x00, 0x00, 0x00, 0x00,
  0x00, 0x90, 0x01, 0xf0, 0x0a, 0x00, 0x00, 0x04, 0x10, 0x00, 0x80, 0x00,
  0x84, 0x00, 0x02, 0x00, 0x00, 0x00, 0x00, 0x30, 0x00, 0x09, 0x09, 0x00,
  0x00, 0x08, 0x24, 0x00, 0x00, 0x01, 0x00, 0x00, 0x00, 0x00, 0x00, 0x00,
  0x00, 0x00, 0x00, 0x58, 0xe2, 0x10, 0x08, 0x00, 0x00, 0x04, 0x00, 0x00,
  0x80, 0x00, 0x84, 0x00, 0x02, 0x00, 0x00, 0x00, 0x00, 0x08, 0x00, 0x49,
  0x9b, 0x0d, 0x13, 0xce, 0x6c, 0xc6, 0xcc, 0x9d, 0xfa, 0xfd, 0xcc, 0x00,
  0x00, 0x00, 0x00, 0x00, 0xa0, 0x54, 0xb2, 0x71, 0xca, 0x0c, 0x73, 0x66,
  0xd2, 0x38, 0xb3, 0x2a, 0xe7, 0x9c, 0x03, 0x00, 0x00, 0x00, 0x00, 0x38,
  0x00, 0x4f, 0x49, 0x85, 0x14, 0x29, 0x25, 0x45, 0x2a, 0xa5, 0x4a, 0xa5,
  0x52, 0x00, 0x00, 0x00, 0x00, 0x00, 0x40, 0x5e, 0x52, 0x11, 0x2a, 0x15,
  0x49, 0x95, 0x56, 0xa5, 0x99, 0xa9, 0x94, 0x52, 0x02, 0x00, 0x00, 0x00,
  0x00, 0x28, 0x00, 0x49, 0x49, 0x85, 0x12, 0xa9, 0x24, 0x45, 0x2a, 0xa5,
  0x4a, 0xa5, 0x4a, 0x00, 0x00, 0x00, 0x00, 0x00, 0xa0, 0x50, 0xb2, 0x11,
  0xaa, 0x14, 0x49, 0x55, 0x52, 0x25, 0xa2, 0xaa, 0x94, 0x52, 0x02, 0x00,
  0x00, 0x00, 0x00, 0x38, 0x00, 0x49, 0x92, 0x05, 0x17, 0xce, 0x49, 0x46,
  0xcc, 0xa5, 0x4b, 0xa5, 0x5c, 0x00, 0x00, 0x00, 0x00, 0x00, 0x00, 0x90,
  0xe1, 0x10, 0xca, 0x15, 0x71, 0xe6, 0x52, 0xb9, 0x99, 0x12, 0xe7, 0x9c,
  0x03, 0x00, 0x00, 0x00, 0x00, 0x00, 0x00, 0x00, 0x00, 0x00, 0x10, 0x00,
  0x00, 0x00, 0x00, 0x00, 0x00, 0x00, 0x00, 0x00, 0x00, 0x00, 0x00, 0x00,
  0x00, 0x00, 0x00, 0x00, 0x00, 0x00, 0x00, 0x00, 0x00, 0x20, 0x00, 0x10,
  0x00, 0x00, 0x00, 0x00, 0x00, 0x00, 0x00, 0x00, 0x00, 0x00, 0x00, 0x00,
  0x08, 0x00, 0x00, 0x00, 0x00, 0x00, 0x00, 0x00, 0x00, 0x00, 0x00, 0x00,
  0x00, 0x00, 0x00, 0x00, 0x00, 0x00, 0x00, 0x00, 0x00, 0x00, 0x00, 0x18,
  0x00, 0x08, 0x00, 0x00, 0x00, 0x00, 0x00, 0x00, 0x00, 0x00, 0x00, 0x00,
  0x00, 0x00, 0x00, 0x00, 0x00, 0x00, 0x00, 0x00, 0x00, 0x00, 0x00, 0x00,
  0x00, 0x00, 0x00, 0x00, 0x00, 0x10, 0x01, 0x30, 0x11, 0x00, 0x80, 0x40,
  0x01, 0x00, 0x00, 0x00, 0x00, 0x00, 0x00, 0x00, 0x00, 0x00, 0x00, 0x38,
  0x00, 0x6f, 0x00, 0x00, 0x00, 0x08, 0x10, 0x20, 0x00, 0x00, 0x00, 0x00,
  0x00, 0x00, 0x00, 0x00, 0x00, 0x00, 0x00, 0x98, 0xe1, 0x08, 0x01, 0x00,
  0x40, 0x40, 0x01, 0x00, 0x00, 0x00, 0x00, 0x00, 0x00, 0x00, 0x00, 0x00,
  0x00, 0x28, 0x00, 0x01, 0x00, 0x08, 0x40, 0x08, 0x50, 0x20, 0x00, 0x00,
  0x00, 0x00, 0x00, 0x00, 0x00, 0x00, 0x00, 0x00, 0xa0, 0x14, 0xb1, 0x31,
  0x55, 0xb9, 0xc3, 0x52, 0x01, 0x00, 0x00, 0x00, 0x00, 0x00, 0x00, 0x00,
  0x00, 0x00, 0x40, 0x21, 0x00, 0x61, 0x06, 0x9b, 0xd9, 0x18, 0xd3, 0x2c,
  0x00, 0x00, 0x00, 0x00, 0x00, 0x00, 0x00, 0x00, 0x00, 0x00, 0x40, 0x1e,
  0x51, 0x41, 0x53, 0xa5, 0x44, 0x52, 0x01, 0x00, 0x00, 0x00, 0x00, 0x00,
  0x00, 0x00, 0x00, 0x00, 0x80, 0x10, 0x00, 0x97, 0x82, 0x49, 0x4a, 0xa8,
  0x54, 0x2a, 0x00, 0x00, 0x00, 0x00, 0x00, 0x00, 0x00, 0x00, 0x00, 0x00,
  0xa0, 0x10, 0xb1, 0x49, 0x95, 0xa4, 0x44, 0x52, 0x01, 0x00, 0x00, 0x00,
  0x00, 0x00, 0x00, 0x00, 0x00, 0x00, 0x40, 0x11, 0x00, 0x91, 0x02, 0x4a,
  0x4a, 0xa8, 0x52, 0x2a, 0x00, 0x00, 0x00, 0x00, 0x00, 0x00, 0x00, 0x00,
  0x00, 0x00, 0x00, 0x10, 0xe1, 0x30, 0x95, 0xb8, 0x44, 0x4e, 0x01, 0x00,
  0x00, 0x00, 0x00, 0x00, 0x00, 0x00, 0x00, 0x00, 0x00, 0x10, 0x00, 0x61,
  0x82, 0x91, 0x89, 0x28, 0x97, 0x2c, 0x00, 0x00, 0x00, 0x00, 0x00, 0x00,
  0x00, 0x00, 0x00, 0x00, 0x00, 0x00, 0x00, 0x00, 0x00, 0x00, 0x00, 0x00,
  0x00, 0x00, 0x00, 0x00, 0x00, 0x00, 0x00, 0x00, 0x00, 0x00, 0x00, 0x00,
  0x00, 0x00, 0x00, 0x00, 0x00, 0x00, 0x00, 0x00, 0x00, 0x00, 0x00, 0x00,
  0x00, 0x00, 0x00, 0x00, 0x00, 0x00, 0x00, 0x00, 0x00, 0x00, 0x00, 0x00,
  0x00, 0x00, 0x00, 0x00, 0x00, 0x00, 0x00, 0x00, 0x00, 0x00, 0x00, 0x00,
  0x00, 0x00, 0x00, 0x00, 0x00, 0x00, 0x00, 0x00, 0x00, 0x00, 0x00, 0x00,
  0x00, 0x00, 0x00, 0x00, 0x00, 0x00, 0x00, 0x00, 0x00, 0x00, 0x00, 0x00,
  0x00, 0x00, 0x00, 0x00, 0x00, 0x00, 0x00, 0x00, 0x00, 0x00, 0x00, 0x00,
  0x00, 0x00, 0x00, 0x00, 0x00, 0x00, 0x00, 0x00, 0x00, 0x80, 0x00, 0x00,
  0x00, 0x00, 0x00, 0x00, 0x00, 0x00, 0x00, 0x00, 0x00, 0x00, 0x00, 0x90,
  0x01, 0x30, 0x11, 0x00, 0x00, 0x88, 0x08, 0x00, 0x00, 0x00, 0x00, 0x00,
  0x00, 0x00, 0x00, 0x00, 0x00, 0x10, 0x00, 0x2f, 0x00, 0x00, 0x08, 0x81,
  0x00, 0x00, 0x00, 0x80, 0x00, 0x00, 0x00, 0x00, 0x00, 0x00, 0x00, 0x00,
  0x00, 0x58, 0xe2, 0x08, 0x01, 0x00, 0x00, 0x80, 0x08, 0x00, 0x00, 0x00,
  0x00, 0x00, 0x00, 0x00, 0x00, 0x00, 0x00, 0x28, 0x00, 0x01, 0x00, 0x00,
  0x00, 0x80, 0x40, 0x02, 0x00, 0x80, 0x01, 0x00, 0x00, 0x00, 0x00, 0x00,
  0x00, 0x00, 0xa0, 0x14, 0xb2, 0x31, 0x55, 0xb9, 0x83, 0x89, 0xca, 0x0d,
  0x00, 0x00, 0x00, 0x00, 0x00, 0x00, 0x00, 0x00, 0x00, 0x10, 0x00, 0xa7,
  0x39, 0x86, 0x09, 0xe1, 0xcc, 0x66, 0xb0, 0xb2, 0x98, 0x07, 0x00, 0x00,
  0x00, 0x00, 0x00, 0x00, 0x40, 0x1e, 0x51, 0x41, 0x53, 0xa5, 0x44, 0x8a,
  0x29, 0x05, 0x00, 0x00, 0x00, 0x00, 0x00, 0x00, 0x00, 0x00, 0x00, 0x28,
  0x00, 0xa1, 0x4a, 0x43, 0x0a, 0x91, 0x52, 0x52, 0x98, 0x9a, 0xa4, 0x0a,
  0x00, 0x00, 0x00, 0x00, 0x00, 0x00, 0xa0, 0x90, 0xb0, 0x49, 0x95, 0xa5,
  0x44, 0x89, 0x2a, 0x05, 0x00, 0x00, 0x00, 0x00, 0x00, 0x00, 0x00, 0x00,
  0x00, 0x28, 0x00, 0xa1, 0x4a, 0x44, 0x09, 0x91, 0x4a, 0x52, 0x20, 0xa1,
  0x94, 0x0a, 0x00, 0x00, 0x00, 0x00, 0x00, 0x00, 0x00, 0xd0, 0xe3, 0x30,
  0x95, 0xb8, 0x84, 0x8b, 0xca, 0x05, 0x00, 0x00, 0x00, 0x00, 0x00, 0x00,
  0x00, 0x00, 0x00, 0x10, 0x00, 0xa1, 0x4a, 0x83, 0x0b, 0xe1, 0x9c, 0x64,
  0x18, 0x19, 0xb9, 0x0a, 0x00, 0x00, 0x00, 0x00, 0x00, 0x00, 0x00, 0x00,
  0x00, 0x00, 0x00, 0x00, 0x00, 0x08, 0x00, 0x00, 0x00, 0x00, 0x00, 0x00,
  0x00, 0x00, 0x00, 0x00, 0x00, 0x00, 0x00, 0x00, 0x00, 0x00, 0x08, 0x00,
  0x00, 0x00, 0x80, 0x00, 0x00, 0x00, 0x00, 0x00, 0x00, 0x00, 0x00, 0x00,
  0x00, 0x00, 0x00, 0x00, 0x00, 0x00, 0x00, 0x04, 0x00, 0x00, 0x00, 0x00,
  0x00, 0x00, 0x00, 0x00, 0x00, 0x00, 0x00, 0x00, 0x00, 0x00, 0x00, 0x00,
  0x04, 0x00, 0x00, 0x00, 0x00, 0x00, 0x00, 0x00, 0x00, 0x00, 0x00, 0x00,
  0x00, 0x00, 0x00, 0x00, 0x00, 0x00, 0x00, 0x00, 0x00, 0x00, 0x00, 0x00,
  0x00, 0x00, 0x00, 0x00, 0x00, 0x00, 0x00, 0x00, 0x00, 0x00, 0x00, 0x00,
  0x00, 0x00, 0x00, 0x00, 0x00, 0x00, 0x00, 0x00, 0x00, 0x00, 0x00, 0x00,
  0x00, 0x00, 0x00, 0x00, 0x00, 0x90, 0x01, 0x30, 0x11, 0x00, 0x00, 0x04,
  0x02, 0x08, 0x40, 0x08, 0x20, 0x00, 0x00, 0x00, 0x00, 0x00, 0x00, 0x10,
  0x00, 0x01, 0x02, 0x00, 0x00, 0x00, 0x15, 0x00, 0x40, 0x01, 0x00, 0x00,
  0x00, 0x00, 0x00, 0x00, 0x00, 0x00, 0x00, 0x58, 0xe2, 0x08, 0x01, 0x00,
  0x00, 0x04, 0x00, 0x08, 0x40, 0x08, 0x20, 0x00, 0x00, 0x00, 0x00, 0x00,
  0x00, 0x28, 0x00, 0x01, 0x32, 0x00, 0x08, 0x80, 0x00, 0x00, 0x01, 0x00,
  0x00, 0x00, 0x00, 0x00, 0x00, 0x00, 0x00, 0x00, 0xa0, 0x14, 0xb1, 0x31,
  0x55, 0xb9, 0x83, 0xd5, 0x2a, 0xab, 0x72, 0xce, 0x39, 0x00, 0x00, 0x00,
  0x00, 0x00, 0x00, 0x28, 0x00, 0x8d, 0x4b, 0x45, 0x9a, 0x8d, 0xc9, 0x60,
  0x9b, 0x1d, 0x31, 0x03, 0x00, 0x00, 0x00, 0x00, 0x00, 0x00, 0x40, 0x1e,
  0x52, 0x41, 0x53, 0xa5, 0xc4, 0x4c, 0xaa, 0x99, 0x4a, 0x29, 0x25, 0x00,
  0x00, 0x00, 0x00, 0x00, 0x00, 0x30, 0x00, 0x55, 0x7a, 0x42, 0x4a, 0x95,
  0x54, 0x30, 0x49, 0xa5, 0x4a, 0x05, 0x00, 0x00, 0x00, 0x00, 0x00, 0x00,
  0xa0, 0x50, 0xb2, 0x49, 0x95, 0xa4, 0x04, 0x55, 0x12, 0xaa, 0x4a, 0x29,
  0x25, 0x00, 0x00, 0x00, 0x00, 0x00, 0x00, 0x20, 0x00, 0x55, 0x0a, 0x42,
  0x4a, 0x95, 0x54, 0x40, 0x49, 0xa5, 0x2a, 0x05, 0x00, 0x00, 0x00, 0x00,
  0x00, 0x00, 0x00, 0x90, 0xe1, 0x30, 0x95, 0xb8, 0xc4, 0x54, 0x92, 0x29,
  0x71, 0xce, 0x39, 0x00, 0x00, 0x00, 0x00, 0x00, 0x00, 0x18, 0x00, 0x95,
  0x33, 0x85, 0x93, 0x95, 0x48, 0x30, 0x8a, 0x25, 0x73, 0x05, 0x00, 0x00,
  0x00, 0x00, 0x00, 0x00, 0x00, 0x00, 0x00, 0x00, 0x00, 0x00, 0x00, 0x00,
  0x00, 0x00, 0x01, 0x00, 0x00, 0x00, 0x00, 0x00, 0x00, 0x00, 0x00, 0x00,
  0x00, 0x00, 0x00, 0x00, 0x00, 0x00, 0x00, 0x00, 0x00, 0x00, 0x02, 0x00,
  0x00, 0x00, 0x00, 0x00, 0x00, 0x00, 0x00, 0x00, 0x00, 0x00, 0x00, 0x00,
  0x00, 0x00, 0x00, 0x80, 0x00, 0x00, 0x00, 0x00, 0x00, 0x00, 0x00, 0x00,
  0x00, 0x00, 0x00, 0x00, 0x00, 0x00, 0x00, 0x00, 0x00, 0x00, 0x00, 0x80,
  0x01, 0x00, 0x00, 0x00, 0x00, 0x00, 0x00, 0x00, 0x00, 0x00, 0x00, 0x00,
  0x00, 0x00, 0x00, 0x00, 0x00, 0x00, 0x00, 0x00, 0x00, 0x00, 0x00, 0x00,
  0x00, 0x00, 0x00, 0x00, 0x00, 0x00, 0x00, 0x00, 0x00, 0x00, 0x00, 0x00,
  0x00, 0x00, 0x00, 0x00, 0x00, 0x00, 0x00, 0x00, 0x00, 0x00, 0x00, 0x10,
  0x02, 0x10, 0x00, 0x82, 0x80, 0x0a, 0x10, 0x0c, 0x00, 0x00, 0x00, 0x00,
  0x00, 0x00, 0x00, 0x00, 0x00, 0x00, 0x80, 0x0f, 0x00, 0x00, 0x90, 0x00,
  0x10, 0x40, 0x00, 0x40, 0x00, 0xa0, 0x00, 0x00, 0x00, 0x00, 0x00, 0x00,
  0x00, 0x18, 0xe3, 0x10, 0x00, 0x80, 0x40, 0x08, 0x00, 0x00, 0x00, 0x00,
  0x00, 0x00, 0x00, 0x00, 0x00, 0x00, 0x80, 0x11, 0x00, 0x02, 0x20, 0x00,
  0x08, 0x00, 0x00, 0x40, 0x10, 0x00, 0x80, 0x00, 0x00, 0x00, 0x00, 0x00,
  0x00, 0x00, 0x00, 0x94, 0xb2, 0x11, 0xc6, 0xb2, 0xc2, 0x0a, 0x13, 0xcc,
  0x1c, 0x33, 0x00, 0x00, 0x00, 0x00, 0x00, 0x00, 0x00, 0x29, 0x00, 0x62,
  0x6a, 0x66, 0x98, 0x19, 0x13, 0x4e, 0x36, 0x46, 0xb0, 0xcd, 0x8e, 0x99,
  0x01, 0x00, 0x00, 0x00, 0x00, 0xde, 0x53, 0x11, 0xa9, 0x9a, 0x41, 0x8a,
  0x14, 0x52, 0xa5, 0x54, 0x00, 0x00, 0x00, 0x00, 0x00, 0x00, 0x00, 0x29,
  0x00, 0x92, 0x24, 0xa9, 0x48, 0x89, 0x14, 0x52, 0x15, 0x43, 0x98, 0xa4,
  0x52, 0xa5, 0x02, 0x00, 0x00, 0x00, 0x00, 0x10, 0xb2, 0x11, 0xa9, 0xa2,
  0x42, 0x8a, 0x12, 0x52, 0xa5, 0x52, 0x00, 0x00, 0x00, 0x00, 0x00, 0x00,
  0x00, 0x29, 0x00, 0x52, 0x24, 0xa5, 0x48, 0x89, 0x12, 0x52, 0x15, 0x44,
  0xa0, 0xa4, 0x52, 0x95, 0x02, 0x00, 0x00, 0x00, 0x00, 0x10, 0xe2, 0x70,
  0xc6, 0x9a, 0x42, 0x0a, 0x17, 0xcc, 0x1c, 0x57, 0x00, 0x00, 0x00, 0x00,
  0x00, 0x00, 0x00, 0x11, 0x00, 0xe2, 0x4a, 0xae, 0x88, 0x09, 0x17, 0x4e,
  0x26, 0x43, 0x18, 0xc5, 0x92, 0xb9, 0x02, 0x00, 0x00, 0x00, 0x00, 0x00,
  0x00, 0x00, 0x80, 0x00, 0x00, 0x00, 0x10, 0x40, 0x04, 0x00, 0x00, 0x00,
  0x00, 0x00, 0x00, 0x00, 0x00, 0x00, 0x00, 0x00, 0x00, 0x00, 0x00, 0x00,
  0x10, 0x02, 0x00, 0x00, 0x00, 0x00, 0x00, 0x01, 0x00, 0x00, 0x00, 0x00,
  0x00, 0x00, 0x00, 0x00, 0x60, 0x00, 0x00, 0x00, 0x08, 0x40, 0x04, 0x00,
  0x00, 0x00, 0x00, 0x00, 0x00, 0x00, 0x00, 0x00, 0x00, 0x00, 0x00, 0x00,
  0x00, 0x00, 0x08, 0x02, 0x00, 0x00, 0x00, 0x00, 0xc0, 0x00, 0x00, 0x00,
  0x00, 0x00, 0x00, 0x00, 0x00, 0x00, 0x00, 0x00, 0x00, 0x00, 0x00, 0x00,
  0x00, 0x00, 0x00, 0x00, 0x00, 0x00, 0x00, 0x00, 0x00, 0x00, 0x00, 0x00,
  0x00, 0x00, 0x00, 0x00, 0x00, 0x00, 0x00, 0x00, 0x00, 0x00, 0x00, 0x00,
  0x00, 0x00, 0x00, 0x00, 0x00, 0x90, 0x03, 0xf8, 0x20, 0x04, 0x20, 0x08,
  0x40, 0x05, 0x00, 0x00, 0x00, 0x00, 0x00, 0x00, 0x00, 0x00, 0x00, 0x11,
  0x00, 0xaf, 0x00, 0x10, 0x00, 0x04, 0x00, 0x00, 0x00, 0x00, 0x00, 0x00,
  0x00, 0x00, 0x00, 0x00, 0x00, 0x00, 0x00, 0x18, 0xe0, 0x08, 0x20, 0x04,
  0x00, 0x88, 0x20, 0x04, 0x00, 0x00, 0x00, 0x00, 0x00, 0x00, 0x00, 0x00,
  0x80, 0x19, 0x00, 0x01, 0x00, 0x01, 0x00, 0x00, 0x00, 0x00, 0x00, 0x00,
  0x00, 0x00, 0x00, 0x00, 0x00, 0x00, 0x00, 0x00, 0x00, 0xd8, 0xb3, 0x79,
  0x26, 0x64, 0x2c, 0xab, 0x61, 0x75, 0xea, 0xf3, 0x31, 0x03, 0x00, 0x00,
  0x00, 0x00, 0x00, 0x11, 0x00, 0x4f, 0x66, 0x33, 0xc3, 0x04, 0x00, 0x00,
  0x00, 0x00, 0x00, 0x00, 0x00, 0x00, 0x00, 0x00, 0x00, 0x00, 0x00, 0x14,
  0x52, 0x09, 0x29, 0x94, 0xaa, 0x99, 0x20, 0x95, 0x2a, 0x95, 0x4a, 0x01,
  0x00, 0x00, 0x00, 0x00, 0x00, 0x11, 0x00, 0xa1, 0x32, 0x29, 0x21, 0x05,
  0x00, 0x00, 0x00, 0x00, 0x00, 0x00, 0x00, 0x00, 0x00, 0x00, 0x00, 0x00,
  0x00, 0x7c, 0xb2, 0x09, 0x25, 0x94, 0x2a, 0xaa, 0x20, 0x95, 0x2a, 0x95,
  0x2a, 0x01, 0x00, 0x00, 0x00, 0x00, 0x00, 0x11, 0x00, 0xa1, 0x42, 0x29,
  0xa1, 0x04, 0x00, 0x00, 0x00, 0x00, 0x00, 0x00, 0x00, 0x00, 0x00, 0x00,
  0x00, 0x00, 0x00, 0x90, 0xe1, 0x08, 0x2e, 0x64, 0xac, 0x29, 0x21, 0x95,
  0x2e, 0x95, 0x72, 0x01, 0x00, 0x00, 0x00, 0x00, 0x00, 0x11, 0x00, 0x41,
  0x32, 0x32, 0xc1, 0x05, 0x00, 0x00, 0x00, 0x00, 0x00, 0x00, 0x00, 0x00,
  0x00, 0x00, 0x00, 0x00, 0x00, 0x00, 0x00, 0x00, 0x00, 0x00, 0x08, 0x00,
  0x00, 0x00, 0x00, 0x00, 0x00, 0x00, 0x00, 0x00, 0x00, 0x00, 0x00, 0x00,
  0x00, 0x00, 0x00, 0x00, 0x00, 0x02, 0x00, 0x00, 0x00, 0x00, 0x00, 0x00,
  0x00, 0x00, 0x00, 0x00, 0x00, 0x00, 0x00, 0x00, 0x00, 0x00, 0x00, 0x00,
  0x06, 0x00, 0x00, 0x00, 0x00, 0x00, 0x00, 0x00, 0x00, 0x00, 0x00, 0x00,
  0x00, 0x00, 0x00, 0x00, 0x00, 0x00, 0x00, 0x00, 0x00, 0x00, 0x00, 0x00,
  0x00, 0x00, 0x00, 0x00, 0x00, 0x00, 0x00, 0x00, 0x00, 0x00, 0x00, 0x00,
  0x00, 0x00, 0x00, 0x00, 0x00, 0x00, 0x00, 0x00, 0x00, 0x00, 0x00, 0x00,
  0x00, 0x00, 0x00, 0x00, 0x00, 0x00, 0x00, 0x00, 0x00, 0x00, 0x00, 0x00,
  0x00, 0x00, 0x00, 0x00, 0x00, 0x00, 0x00, 0x00, 0x00, 0x00, 0x00, 0x90,
  0x01, 0xf8, 0x20, 0x00, 0x04, 0x00, 0x00, 0x00, 0x00, 0x00, 0x00, 0x00,
  0x00, 0x00, 0x00, 0x00, 0x00, 0x11, 0x00, 0x0f, 0x04, 0x81, 0x00, 0x00,
  0x08, 0x00, 0x00, 0x00, 0x00, 0x00, 0x00, 0x00, 0x00, 0x00, 0x00, 0x00,
  0x00, 0x58, 0xe0, 0x08, 0x20, 0x00, 0x04, 0x10, 0x00, 0x00, 0x00, 0x00,
  0x00, 0x00, 0x00, 0x00, 0x00, 0x00, 0x80, 0x29, 0x00, 0x01, 0x04, 0x11,
  0x40, 0x08, 0x08, 0x00, 0x00, 0x00, 0x00, 0x00, 0x00, 0x00, 0x00, 0x00,
  0x00, 0x00, 0x00, 0xd4, 0xb1, 0x79, 0x26, 0xcc, 0x1c, 0x33, 0x9b, 0xfa,
  0x7c, 0xcc, 0x00, 0x00, 0x00, 0x00, 0x00, 0x00, 0x14, 0x21, 0x00, 0xcf,
  0x64, 0xb5, 0xdc, 0x98, 0x09, 0x00, 0x00, 0x00, 0x00, 0x00, 0x00, 0x00,
  0x00, 0x00, 0x00, 0x00, 0x00, 0x5e, 0x52, 0x09, 0x29, 0x52, 0xa5, 0x94,
  0xa9, 0x4a, 0xa5, 0x52, 0x00, 0x00, 0x00, 0x00, 0x00, 0x00, 0x08, 0x11,
  0x00, 0x21, 0x55, 0x93, 0x52, 0x48, 0x09, 0x00, 0x00, 0x00, 0x00, 0x00,
  0x00, 0x00, 0x00, 0x00, 0x00, 0x00, 0x00, 0x50, 0xb2, 0x09, 0x25, 0x4a,
  0xa5, 0x12, 0xaa, 0x4a, 0xa5, 0x4a, 0x00, 0x00, 0x00, 0x00, 0x00, 0x00,
  0x14, 0x09, 0x00, 0xa1, 0x54, 0x93, 0x52, 0x48, 0x09, 0x00, 0x00, 0x00,
  0x00, 0x00, 0x00, 0x00, 0x00, 0x00, 0x00, 0x00, 0x00, 0x90, 0xe1, 0x08,
  0x2e, 0x5c, 0x25, 0xa7, 0x29, 0x4b, 0xa5, 0x5c, 0x00, 0x00, 0x00, 0x00,
  0x00, 0x00, 0x00, 0x39, 0x00, 0xc1, 0x65, 0xa5, 0x9c, 0x90, 0x09, 0x00,
  0x00, 0x00, 0x00, 0x00, 0x00, 0x00, 0x00, 0x00, 0x00, 0x00, 0x00, 0x00,
  0x00, 0x00, 0x00, 0x00, 0x00, 0x00, 0x00, 0x00, 0x00, 0x00, 0x00, 0x00,
  0x00, 0x00, 0x00, 0x00, 0x00, 0x00, 0x00, 0x00, 0x00, 0x00, 0x10, 0x00,
  0x00, 0x00, 0x00, 0x00, 0x00, 0x00, 0x00, 0x00, 0x00, 0x00, 0x00, 0x00,
  0x00, 0x00, 0x00, 0x00, 0x00, 0x00, 0x00, 0x00, 0x00, 0x00, 0x00, 0x00,
  0x00, 0x00, 0x00, 0x00, 0x00, 0x00, 0x00, 0x00, 0x00, 0x00, 0x00, 0x00,
  0x0e, 0x00, 0x00, 0x00, 0x00, 0x00, 0x00, 0x00, 0x00, 0x00, 0x00, 0x00,
  0x00, 0x00, 0x00, 0x00, 0x00, 0x00, 0x00, 0x00, 0x00, 0x00, 0x00, 0x00,
  0x00, 0x00, 0x00, 0x00, 0x00, 0x00, 0x00, 0x00, 0x00, 0x00, 0x00, 0x00,
  0x00, 0x00, 0x00, 0x00, 0x00, 0x00, 0x00, 0x00, 0x00, 0x00, 0x00, 0x00,
  0x00, 0x00, 0x00, 0x00, 0x00, 0xd0, 0x03, 0x78, 0x20, 0x00, 0x00, 0x00,
  0x00, 0x00, 0x00, 0x00, 0x00, 0x00, 0x00, 0x00, 0x00, 0x00, 0x00, 0x19,
  0x00, 0x0f, 0x04, 0x80, 0x80, 0x00, 0x05, 0x40, 0x00, 0x00, 0x00, 0x00,
  0x00, 0x00, 0x80, 0x00, 0x00, 0x00, 0x00, 0x18, 0xe2, 0x08, 0x20, 0x02,
  0x00, 0x00, 0x00, 0x00, 0x00, 0x00, 0x00, 0x00, 0x00, 0x00, 0x00, 0x00,
  0x80, 0x21, 0x00, 0xc1, 0x84, 0x99, 0x99, 0x30, 0x65, 0xc6, 0xea, 0x60,
  0x05, 0x9b, 0xab, 0x9f, 0x99, 0x01, 0x00, 0x00, 0x00, 0x14, 0xb1, 0x39,
  0x26, 0x36, 0x37, 0xa7, 0x3e, 0x1f, 0x33, 0x00, 0x00, 0x00, 0x00, 0x00,
  0x00, 0x00, 0x00, 0x11, 0x00, 0x2f, 0x45, 0xa9, 0x94, 0x48, 0x95, 0x42,
  0x2a, 0x51, 0x85, 0x4a, 0xaa, 0x54, 0xaa, 0x00, 0x00, 0x00, 0x00, 0x9e,
  0x50, 0x09, 0x29, 0x92, 0x54, 0xa9, 0x52, 0xa9, 0x14, 0x00, 0x00, 0x00,
  0x00, 0x00, 0x00, 0x00, 0x00, 0x21, 0x00, 0xa1, 0x44, 0xa9, 0x94, 0x28,
  0x55, 0x42, 0x2a, 0x51, 0x85, 0x4a, 0xaa, 0x54, 0xa9, 0x00, 0x00, 0x00,
  0x00, 0x90, 0xb0, 0x09, 0x25, 0x92, 0x54, 0xa9, 0x52, 0xa9, 0x12, 0x00,
  0x00, 0x00, 0x00, 0x00, 0x00, 0x00, 0x00, 0x29, 0x00, 0xc1, 0x85, 0x29,
  0x99, 0x70, 0xe5, 0x82, 0xe4, 0x60, 0x02, 0x8b, 0xb3, 0x94, 0x2b, 0x01,
  0x00, 0x00, 0x00, 0x90, 0xe0, 0x08, 0x2e, 0x14, 0x37, 0xc9, 0x52, 0x29,
  0x17, 0x00, 0x00, 0x00, 0x00, 0x00, 0x00, 0x00, 0x00, 0x10, 0x00, 0x00,
  0x00, 0x00, 0x00, 0x00, 0x00, 0x00, 0x24, 0x00, 0x00, 0x40, 0x02, 0x00,
  0x00, 0x00, 0x00, 0x00, 0x00, 0x00, 0x00, 0x00, 0x00, 0x00, 0x10, 0x00,
  0x00, 0x00, 0x00, 0x00, 0x00, 0x00, 0x00, 0x00, 0x00, 0x00, 0x00, 0x00,
  0x00, 0x00, 0x00, 0x00, 0x00, 0x00, 0x00, 0x00, 0x22, 0x00, 0x00, 0x80,
  0x01, 0x00, 0x00, 0x00, 0x00, 0x00, 0x00, 0x00, 0x00, 0x00, 0x00, 0x00,
  0x10, 0x00, 0x00, 0x00, 0x00, 0x00, 0x00, 0x00, 0x00, 0x00, 0x00, 0x00,
  0x00, 0x00, 0x00, 0x00, 0x00, 0x00, 0x00, 0x00, 0x00, 0x00, 0x00, 0x00,
  0x00, 0x00, 0x00, 0x00, 0x00, 0x00, 0x00, 0x00, 0x00, 0x00, 0x00, 0x00,
  0x00, 0x00, 0x00, 0x00, 0x00, 0x00, 0x00, 0x00, 0x00, 0x00, 0x00, 0x00,
  0x00, 0x00, 0x00, 0x00, 0x00, 0x0e, 0x2a, 0x01, 0x00, 0x00, 0x10, 0x00,
  0x00, 0x02, 0x00, 0x00, 0x00, 0x00, 0x00, 0x00, 0x00, 0x00, 0x00, 0x90,
  0x01, 0xf8, 0x20, 0x44, 0x28, 0x14, 0x00, 0x08, 0x00, 0x00, 0x00, 0x00,
  0x00, 0x00, 0x00, 0x00, 0x00, 0x21, 0x00, 0x51, 0x28, 0x08, 0x08, 0x01,
  0x10, 0x00, 0x00, 0x09, 0x00, 0x00, 0x01, 0x00, 0x00, 0x00, 0x00, 0x00,
  0x00, 0x58, 0xe2, 0x08, 0x20, 0x40, 0x20, 0x04, 0x08, 0x08, 0x10, 0x00,
  0x00, 0x00, 0x00, 0x00, 0x00, 0x00, 0x80, 0x31, 0x00, 0xd1, 0x2a, 0x9b,
  0x19, 0x33, 0x56, 0x66, 0x30, 0xdb, 0x0c, 0x66, 0x33, 0x33, 0x00, 0x00,
  0x00, 0x00, 0x00, 0x94, 0xb1, 0x79, 0x26, 0xc4, 0xe9, 0x94, 0x99, 0x29,
  0x33, 0x00, 0x00, 0x00, 0x00, 0x00, 0x00, 0x00, 0x00, 0x29, 0x00, 0x51,
  0xaa, 0x4a, 0x0a, 0x49, 0x31, 0xa9, 0x48, 0x29, 0x05, 0x53, 0x99, 0x54,
  0x00, 0x00, 0x00, 0x00, 0x00, 0x5e, 0x52, 0x09, 0x29, 0x44, 0x2a, 0x55,
  0x4a, 0x9a, 0x14, 0x00, 0x00, 0x00, 0x00, 0x00, 0x00, 0x00, 0x00, 0x39,
  0x00, 0x51, 0xaa, 0x4a, 0x09, 0x29, 0x51, 0xa5, 0x28, 0xa9, 0x04, 0x54,
  0xa1, 0x52, 0x00, 0x00, 0x00, 0x00, 0x00, 0x50, 0xb2, 0x09, 0x25, 0x44,
  0x2a, 0x55, 0x4a, 0xa9, 0x12, 0x00, 0x00, 0x00, 0x00, 0x00, 0x00, 0x00,
  0x00, 0x21, 0x00, 0x8e, 0x2a, 0x93, 0x13, 0x72, 0x56, 0xae, 0x70, 0xd1,
  0x05, 0x63, 0x1a, 0x57, 0x00, 0x00, 0x00, 0x00, 0x00, 0x90, 0xe1, 0x08,
  0x2e, 0xc4, 0xe9, 0x94, 0x91, 0x2b, 0x27, 0x00, 0x00, 0x00, 0x00, 0x00,
  0x00, 0x00, 0x00, 0x00, 0x00, 0x00, 0x00, 0x00, 0x00, 0x00, 0x00, 0x00,
  0x00, 0x00, 0x00, 0x00, 0x00, 0x00, 0x00, 0x00, 0x00, 0x00, 0x00, 0x00,
  0x00, 0x00, 0x00, 0x00, 0x00, 0x00, 0x00, 0x00, 0x00, 0x00, 0x00, 0x00,
  0x00, 0x00, 0x00, 0x00, 0x00, 0x00, 0x00, 0x00, 0x00, 0x00, 0x00, 0x00,
  0x00, 0x00, 0x00, 0x00, 0x00, 0x00, 0x00, 0x00, 0x00, 0x00, 0x00, 0x00,
  0x00, 0x00, 0x00, 0x00, 0x00, 0x00, 0x00, 0x00, 0x00, 0x00, 0x00, 0x00,
  0x00, 0x00, 0x00, 0x00, 0x00, 0x00, 0x00, 0x00, 0x00, 0x00, 0x00, 0x00,
  0x00, 0x00, 0x00, 0x00, 0x00, 0x00, 0x00, 0x00, 0x00, 0x00, 0x00, 0x00,
  0x00, 0x00, 0x00, 0x00, 0x00, 0x00, 0x00, 0x00, 0x00, 0x00, 0x00, 0x00,
  0x00, 0x08, 0x00, 0x00, 0x00, 0x00, 0x00, 0x00, 0x00, 0x00, 0x00, 0x00,
  0x00, 0x00, 0x02, 0x00, 0x00, 0x14, 0x00, 0x40, 0x20, 0x08, 0x10, 0x00,
  0x00, 0x00, 0x00, 0x00, 0x00, 0x90, 0x01, 0x78, 0x20, 0x08, 0x04, 0x80,
  0x00, 0x82, 0x00, 0xa4, 0x00, 0x00, 0x00, 0x00, 0x00, 0x00, 0x00, 0x39,
  0x00, 0x05, 0x50, 0x00, 0x02, 0x00, 0x00, 0x14, 0x00, 0x00, 0x10, 0x08,
  0x10, 0x08, 0x00, 0x00, 0x00, 0x00, 0x00, 0x58, 0xe2, 0x08, 0x20, 0x88,
  0x00, 0x42, 0x00, 0x80, 0x08, 0x8c, 0x00, 0x00, 0x00, 0x00, 0x00, 0x00,
  0x80, 0x09, 0x00, 0x00, 0x00, 0xcc, 0xca, 0x38, 0xc3, 0x95, 0x19, 0xc7,
  0xb0, 0x09, 0x93, 0x9b, 0x01, 0x00, 0x00, 0x00, 0x00, 0x54, 0xb2, 0x79,
  0x26, 0xab, 0xe5, 0xc6, 0xca, 0xb2, 0x1a, 0xa4, 0x4e, 0x7d, 0x3e, 0x66,
  0x00, 0x00, 0x00, 0x39, 0x00, 0xe0, 0x03, 0xa6, 0x46, 0xa5, 0x21, 0x55,
  0x0a, 0xa9, 0x50, 0x0a, 0x55, 0xca, 0x00, 0x00, 0x00, 0x00, 0x00, 0x9e,
  0x53, 0x09, 0xa9, 0x9a, 0x94, 0x42, 0x6a, 0x9a, 0x09, 0xa4, 0x52, 0xa5,
  0x52, 0x29, 0x00, 0x00, 0x00, 0x41, 0x00, 0x00, 0x00, 0xa8, 0x4a, 0x25,
  0xa2, 0x54, 0x09, 0xa9, 0x50, 0x09, 0x55, 0x0a, 0x01, 0x00, 0x00, 0x00,
  0x00, 0x10, 0xb2, 0x09, 0xa5, 0xaa, 0x94, 0x42, 0x8a, 0xa2, 0x0a, 0xa4,
  0x52, 0xa5, 0x52, 0x25, 0x00, 0x00, 0x00, 0x39, 0x00, 0xe0, 0x03, 0xc6,
  0x4a, 0xb9, 0xc1, 0x95, 0x0b, 0xc7, 0x90, 0x0b, 0x93, 0xd3, 0x00, 0x00,
  0x00, 0x00, 0x00, 0x90, 0xe1, 0x08, 0x2e, 0x2b, 0xe5, 0x44, 0x64, 0x9a,
  0x12, 0xa4, 0x92, 0xa5, 0x52, 0x2e, 0x00, 0x00, 0x00, 0x00, 0x00, 0x00,
  0x00, 0x00, 0x00, 0x00, 0x00, 0x00, 0x00, 0x01, 0x00, 0x00, 0x01, 0x00,
  0x00, 0x00, 0x00, 0x00, 0x00, 0x00, 0x00, 0x00, 0x00, 0x00, 0x80, 0x00,
  0x04, 0x00, 0x00, 0x00, 0x00, 0x00, 0x00, 0x00, 0x00, 0x00, 0x00, 0x00,
  0x00, 0x00, 0x00, 0x00, 0x00, 0x00, 0x00, 0x00, 0x00, 0x01, 0x00, 0x00,
  0x01, 0x00, 0x00, 0x00, 0x00, 0x00, 0x00, 0x00, 0x00, 0x00, 0x00, 0x00,
  0x60, 0x00, 0x02, 0x00, 0x00, 0x00, 0x00, 0x00, 0x00, 0x00, 0x00, 0x00,
  0x00, 0x00, 0x00, 0x00, 0x00, 0x00, 0x00, 0x00, 0x00, 0x00, 0x00, 0x00,
  0x00, 0x00, 0x00, 0x00, 0x00, 0x00, 0x00, 0x00, 0x00, 0x00, 0x00, 0x00,
  0x00, 0x10, 0x00, 0x00, 0x00, 0x00, 0x00, 0x00, 0x00, 0x00, 0x40, 0x00,
  0x00, 0x00, 0x00, 0x00, 0x00, 0x07, 0x10, 0x00, 0x00, 0x00, 0x00, 0x00,
  0x00, 0x00, 0x00, 0x00, 0x00, 0x00, 0x00, 0x00, 0x00, 0x00, 0x00, 0x8e,
  0x01, 0x48, 0x00, 0x10, 0x20, 0x80, 0x00, 0x00, 0x00, 0x00, 0x12, 0x84,
  0x40, 0x00, 0x00, 0x00, 0x00, 0x31, 0x00, 0x09, 0x10, 0x00, 0x00, 0x00,
  0x00, 0x00, 0x01, 0x00, 0x00, 0x00, 0x00, 0x00, 0x00, 0x00, 0x00, 0x00,
  0x00, 0x42, 0x02, 0x28, 0xe5, 0xdc, 0x6c, 0x93, 0x91, 0xc6, 0x18, 0xe7,
  0x46, 0x8d, 0x59, 0x00, 0x00, 0x00, 0x80, 0x09, 0x00, 0xc9, 0xd9, 0x29,
  0x9f, 0xc7, 0x0c, 0x73, 0x75, 0xcc, 0x00, 0x00, 0x00, 0x00, 0x00, 0x00,
  0x00, 0x00, 0x00, 0x4e, 0x02, 0x18, 0x95, 0x52, 0x2a, 0xa9, 0x90, 0x42,
  0xa5, 0x94, 0x52, 0x85, 0x54, 0x00, 0x00, 0x00, 0x00, 0x39, 0x00, 0x27,
  0x55, 0x2a, 0xa5, 0x2a, 0x85, 0x49, 0x93, 0x6a, 0x00, 0x00, 0x00, 0x00,
  0x00, 0x00, 0x00, 0x00, 0x00, 0x50, 0x02, 0x28, 0x92, 0x52, 0x2a, 0xa9,
  0x90, 0x42, 0x95, 0x94, 0x92, 0x84, 0x54, 0x00, 0x00, 0x00, 0x00, 0x49,
  0x00, 0x29, 0x55, 0x2a, 0xa5, 0xaa, 0x04, 0x4a, 0x95, 0x8a, 0x00, 0x00,
  0x00, 0x00, 0x00, 0x00, 0x00, 0x00, 0x00, 0x52, 0x02, 0x48, 0xe2, 0x5c,
  0x4c, 0x11, 0xe1, 0x42, 0x39, 0xe7, 0x94, 0x08, 0x59, 0x00, 0x00, 0x00,
  0x00, 0x31, 0x00, 0xc9, 0x59, 0x32, 0xa5, 0xca, 0x85, 0x71, 0x95, 0x6c,
  0x00, 0x00, 0x00, 0x00, 0x00, 0x00, 0x00, 0x00, 0x00, 0x8c, 0x01, 0x00,
  0x00, 0x00, 0x00, 0x00, 0x00, 0x00, 0x00, 0x04, 0x00, 0x00, 0x00, 0x00,
  0x00, 0x00, 0x00, 0x00, 0x00, 0x00, 0x00, 0x00, 0x00, 0x00, 0x00, 0x00,
  0x00, 0x00, 0x00, 0x00, 0x00, 0x00, 0x00, 0x00, 0x00, 0x00, 0x00, 0x00,
  0x00, 0x00, 0x00, 0x00, 0x00, 0x00, 0x00, 0x00, 0x00, 0x03, 0x00, 0x00,
  0x00, 0x00, 0x00, 0x00, 0x00, 0x00, 0x00, 0x00, 0x00, 0x00, 0x00, 0x00,
  0x00, 0x00, 0x00, 0x00, 0x00, 0x00, 0x00, 0x00, 0x00, 0x00, 0x00, 0x00,
  0x00, 0x00, 0x00, 0x00, 0x00, 0x00, 0x00, 0x00, 0x00, 0x00, 0x00, 0x00,
  0x00, 0x00, 0x00, 0x00, 0x00, 0x00, 0x00, 0x00, 0x00, 0x00, 0x00, 0x00,
  0x00, 0x00, 0x00, 0x00, 0x00, 0x00, 0x00, 0x00, 0x00, 0x00, 0x00, 0x00,
  0x00, 0x00, 0x00, 0x0e, 0x01, 0x78, 0x20, 0x00, 0x00, 0x00, 0x00, 0x00,
  0x00, 0x00, 0x00, 0x00, 0x00, 0x00, 0x00, 0x00, 0x00, 0x00, 0x00, 0x0e,
  0x2a, 0x44, 0x00, 0x10, 0x00, 0x00, 0x00, 0x00, 0x00, 0x02, 0x00, 0x28,
  0x00, 0x00, 0x00, 0x00, 0x00, 0x82, 0x01, 0x08, 0x20, 0x40, 0x00, 0x00,
  0x00, 0x04, 0x00, 0x00, 0x00, 0x00, 0x00, 0x00, 0x00, 0x00, 0x00, 0x39,
  0x00, 0x51, 0x28, 0x44, 0x00, 0x10, 0x00, 0x00, 0x04, 0x04, 0x00, 0x02,
  0x20, 0x00, 0x00, 0x00, 0x00, 0x00, 0x00, 0x0e, 0x01, 0x38, 0x67, 0xcc,
  0xcc, 0x50, 0xe7, 0xcc, 0xcc, 0x1c, 0x00, 0x00, 0x00, 0x00, 0x00, 0x00,
  0x80, 0x21, 0x00, 0xd1, 0x2a, 0x4c, 0x6e, 0xdc, 0x01, 0x57, 0xcc, 0x04,
  0xc6, 0x0e, 0x6c, 0xb3, 0x63, 0x6e, 0x00, 0x00, 0x00, 0x10, 0x01, 0x08,
  0xa9, 0x52, 0x52, 0x51, 0x29, 0xa5, 0x2a, 0x25, 0x00, 0x00, 0x00, 0x00,
  0x00, 0x00, 0x00, 0x11, 0x00, 0x51, 0x2a, 0x54, 0xa9, 0x52, 0x82, 0x54,
  0xa4, 0x04, 0x29, 0x12, 0x26, 0xa9, 0x54, 0x29, 0x00, 0x00, 0x00, 0x12,
  0x01, 0x08, 0xa9, 0x4a, 0x4a, 0x51, 0x29, 0xa5, 0xaa, 0x24, 0x00, 0x00,
  0x00, 0x00, 0x00, 0x00, 0x00, 0x11, 0x00, 0x51, 0x2a, 0x54, 0xa9, 0x52,
  0x82, 0x54, 0xa4, 0x04, 0x29, 0x12, 0x28, 0xa9, 0x54, 0x29, 0x00, 0x00,
  0x00, 0x0c, 0x01, 0x78, 0xa9, 0x5c, 0x5c, 0x61, 0xe7, 0xc8, 0xcc, 0x25,
  0x00, 0x00, 0x00, 0x00, 0x00, 0x00, 0x00, 0x11, 0x00, 0xce, 0xaa, 0x4c,
  0xae, 0x5c, 0x0a, 0x27, 0xc8, 0x04, 0xc6, 0x12, 0x46, 0xb1, 0x64, 0x2e,
  0x00, 0x00, 0x00, 0x00, 0x00, 0x00, 0x00, 0x00, 0x00, 0x00, 0x21, 0x00,
  0x08, 0x00, 0x00, 0x00, 0x00, 0x00, 0x00, 0x00, 0x00, 0x00, 0x00, 0x00,
  0x00, 0x00, 0x00, 0x00, 0x00, 0x00, 0x00, 0x00, 0x00, 0x00, 0x00, 0x00,
  0x40, 0x00, 0x00, 0x00, 0x00, 0x00, 0x00, 0x00, 0x00, 0x00, 0x00, 0x00,
  0x21, 0x00, 0x06, 0x00, 0x00, 0x00, 0x00, 0x00, 0x00, 0x00, 0x00, 0x00,
  0x00, 0x00, 0x00, 0x00, 0x00, 0x00, 0x00, 0x00, 0x00, 0x00, 0x00, 0x00,
  0x00, 0x00, 0x70, 0x00, 0x00, 0x00, 0x00, 0x00, 0x00, 0x00, 0x00, 0x00,
  0x08, 0x00, 0x00, 0x00, 0x00, 0x00, 0x00, 0x00, 0x00, 0x00, 0x00, 0x00,
  0x00, 0x00, 0x00, 0x00, 0x00, 0x00, 0x00, 0x00, 0x00, 0x00, 0x00, 0x00,
  0x00, 0x00, 0x00, 0x00, 0x00, 0x00, 0x00, 0x00, 0x00, 0x8e, 0x01, 0x78,
  0x01, 0x15, 0x08, 0x00, 0x00, 0x00, 0x08, 0x00, 0x00, 0x00, 0x00, 0x00,
  0x00, 0x00, 0x00, 0x31, 0x00, 0x45, 0x01, 0x20, 0x00, 0x00, 0x40, 0x01,
  0x00, 0x04, 0x02, 0x01, 0x02, 0x00, 0x00, 0x00, 0x00, 0x00, 0x00, 0x42,
  0x02, 0x08, 0x20, 0x14, 0x08, 0x00, 0x00, 0x00, 0x08, 0x20, 0x00, 0x00,
  0x00, 0x00, 0x00, 0x00, 0x80, 0x49, 0x00, 0x10, 0x00, 0x20, 0x00, 0x00,
  0x40, 0x01, 0x00, 0x00, 0x01, 0x01, 0x82, 0x00, 0x00, 0x00, 0x00, 0x00,
  0x00, 0x0e, 0x02, 0x38, 0x61, 0x15, 0xcc, 0xcc, 0x31, 0xcc, 0x39, 0x66,
  0x00, 0x00, 0x00, 0x00, 0x00, 0x00, 0x00, 0x31, 0x00, 0x20, 0xc0, 0xac,
  0x8c, 0x33, 0x4c, 0x99, 0x71, 0x0c, 0x33, 0x71, 0xb2, 0x19, 0x00, 0x00,
  0x00, 0x00, 0x00, 0x10, 0x01, 0x08, 0x21, 0x15, 0x2a, 0x55, 0x2a, 0x52,
  0x4a, 0x29, 0x00, 0x00, 0x00, 0x00, 0x00, 0x00, 0x00, 0x49, 0x00, 0x20,
  0x60, 0x6a, 0x54, 0x1a, 0x52, 0xa5, 0x90, 0x0a, 0x49, 0x91, 0xaa, 0x0c,
  0x00, 0x00, 0x00, 0x00, 0x00, 0x92, 0x00, 0x08, 0x21, 0x15, 0xaa, 0x54,
  0x2a, 0x4a, 0x4a, 0x25, 0x00, 0x00, 0x00, 0x00, 0x00, 0x00, 0x00, 0x49,
  0x00, 0x20, 0x80, 0xaa, 0x54, 0x22, 0x4a, 0x95, 0x90, 0x0a, 0x29, 0x91,
  0xaa, 0x10, 0x00, 0x00, 0x00, 0x00, 0x00, 0xcc, 0x03, 0x78, 0x41, 0x15,
  0xcc, 0x55, 0x32, 0x5c, 0x4a, 0x4e, 0x00, 0x00, 0x00, 0x00, 0x00, 0x00,
  0x00, 0x31, 0x00, 0x20, 0x60, 0xac, 0x94, 0x1b, 0x5c, 0xb9, 0x70, 0x0c,
  0x71, 0x71, 0x32, 0x0d, 0x00, 0x00, 0x00, 0x00, 0x00, 0x00, 0x00, 0x00,
  0x01, 0x00, 0x00, 0x00, 0x00, 0x00, 0x00, 0x00, 0x00, 0x00, 0x00, 0x00,
  0x00, 0x00, 0x00, 0x00, 0x00, 0x10, 0x00, 0x00, 0x00, 0x00, 0x00, 0x00,
  0x10, 0x00, 0x00, 0x10, 0x00, 0x00, 0x00, 0x00, 0x00, 0x00, 0x00, 0x00,
  0x00, 0x80, 0x00, 0x00, 0x00, 0x00, 0x00, 0x00, 0x00, 0x00, 0x00, 0x00,
  0x00, 0x00, 0x00, 0x00, 0x00, 0x00, 0x00, 0x00, 0x00, 0x00, 0x00, 0x00,
  0x00, 0x00, 0x10, 0x00, 0x00, 0x10, 0x00, 0x00, 0x00, 0x00, 0x00, 0x00,
  0x00, 0x00, 0x00, 0x00, 0x00, 0x00, 0x00, 0x00, 0x00, 0x00, 0x00, 0x00,
  0x00, 0x00, 0x00, 0x00, 0x00, 0x00, 0x00, 0x00, 0x00, 0x00, 0x00, 0x00,
  0x00, 0x00, 0x00, 0x00, 0x00, 0x00, 0x00, 0x00, 0x00, 0x00, 0x00, 0x00,
  0x00, 0x00, 0x00, 0x8e, 0x01, 0x78, 0x00, 0x08, 0x04, 0x00, 0x20, 0x00,
  0x00, 0x00, 0x00, 0x00, 0x00, 0x00, 0x00, 0x00, 0x00, 0x31, 0x00, 0x09,
  0x00, 0x40, 0x18, 0x00, 0x00, 0xa0, 0x00, 0x50, 0x01, 0x00, 0x00, 0x00,
  0x00, 0x00, 0x00, 0x00, 0x00, 0x42, 0x02, 0x08, 0x20, 0x88, 0x00, 0x00,
  0x20, 0x00, 0x00, 0x00, 0x00, 0x00, 0x00, 0x00, 0x00, 0x00, 0x80, 0x49,
  0x00, 0x05, 0x00, 0x00, 0x00, 0x00, 0x00, 0x90, 0x00, 0x08, 0x01, 0x00,
  0x00, 0x00, 0x00, 0x00, 0x00, 0x00, 0x00, 0x0e, 0x01, 0x08, 0x26, 0xab,
  0xe5, 0x98, 0x39, 0x00, 0x00, 0x00, 0x00, 0x00, 0x00, 0x00, 0x00, 0x00,
  0x14, 0x49, 0x00, 0xc3, 0x1d, 0x4c, 0x98, 0x33, 0xc7, 0xb0, 0xcc, 0x58,
  0x99, 0x01, 0x00, 0x00, 0x00, 0x00, 0x00, 0x00, 0x00, 0x10, 0x02, 0x78,
  0xa9, 0x9a, 0x94, 0x48, 0x25, 0x00, 0x00, 0x00, 0x00, 0x00, 0x00, 0x00,
  0x00, 0x00, 0x08, 0x71, 0x00, 0x25, 0x25, 0x52, 0xa4, 0x54, 0xa9, 0x90,
  0x52, 0x48, 0xa5, 0x00, 0x00, 0x00, 0x00, 0x00, 0x00, 0x00, 0x00, 0x52,
  0x02, 0x08, 0xa5, 0xaa, 0x94, 0x48, 0x25, 0x00, 0x00, 0x00, 0x00, 0x00,
  0x00, 0x00, 0x00, 0x00, 0x14, 0x41, 0x00, 0x29, 0x25, 0x4a, 0xa4, 0x54,
  0xa9, 0x90, 0x4a, 0x48, 0x95, 0x00, 0x00, 0x00, 0x00, 0x00, 0x00, 0x00,
  0x00, 0x8c, 0x01, 0x08, 0x2e, 0x2b, 0xe5, 0x88, 0x39, 0x00, 0x00, 0x00,
  0x00, 0x00, 0x00, 0x00, 0x00, 0x00, 0x00, 0x31, 0x00, 0xd1, 0x25, 0x5c,
  0x98, 0x33, 0xc9, 0x90, 0x5c, 0x48, 0xb9, 0x00, 0x00, 0x00, 0x00, 0x00,
  0x00, 0x00, 0x00, 0x00, 0x00, 0x00, 0x00, 0x00, 0x90, 0x00, 0x00, 0x00,
  0x00, 0x00, 0x00, 0x00, 0x00, 0x00, 0x00, 0x00, 0x00, 0x00, 0x00, 0x00,
  0x00, 0x40, 0x80, 0x10, 0x00, 0x00, 0x00, 0x00, 0x00, 0x00, 0x00, 0x00,
  0x00, 0x00, 0x00, 0x00, 0x00, 0x00, 0x00, 0x00, 0x00, 0x00, 0x60, 0x00,
  0x00, 0x00, 0x00, 0x00, 0x00, 0x00, 0x00, 0x00, 0x00, 0x00, 0x00, 0x00,
  0x00, 0x00, 0x00, 0x20, 0x80, 0x10, 0x00, 0x00, 0x00, 0x00, 0x00, 0x00,
  0x00, 0x00, 0x00, 0x00, 0x00, 0x00, 0x00, 0x00, 0x00, 0x00, 0x00, 0x00,
  0x00, 0x00, 0x00, 0x00, 0x00, 0x00, 0x00, 0x00, 0x00, 0x00, 0x00, 0x00,
  0x00, 0x00, 0x00, 0x00, 0x00, 0x00, 0x00, 0x00, 0x00, 0x00, 0x00, 0x00,
  0x00, 0x00, 0x00, 0x00, 0x00, 0x00, 0x00, 0x00, 0x00, 0x0e, 0x01, 0xc8,
  0x3b, 0x08, 0x41, 0x00, 0x28, 0x80, 0x00, 0x00, 0x00, 0x02, 0x00, 0x00,
  0x00, 0x00, 0x00, 0x31, 0x00, 0xcf, 0x80, 0x04, 0x00, 0x00, 0x08, 0x05,
  0x31, 0x42, 0x02, 0x04, 0x00, 0x00, 0x00, 0x00, 0x00, 0x00, 0x00, 0x02,
  0xe1, 0x48, 0x44, 0x08, 0x40, 0x00, 0x00, 0x80, 0x00, 0x00, 0x00, 0x02,
  0x00, 0x90, 0x00, 0x00, 0x80, 0x4a, 0x00, 0x01, 0x80, 0x00, 0x00, 0x00,
  0x88, 0x88, 0x49, 0xc5, 0x02, 0x08, 0x00, 0x00, 0x00, 0x00, 0x00, 0x00,
  0x00, 0x8e, 0x11, 0xc9, 0x05, 0x18, 0x73, 0x06, 0x33, 0xe3, 0x6c, 0x06,
  0xe3, 0x06, 0x1f, 0xb3, 0x01, 0x00, 0x00, 0x4a, 0x00, 0xcf, 0x8c, 0xcc,
  0x38, 0xcc, 0x8c, 0x10, 0x21, 0x45, 0xea, 0x08, 0x00, 0x00, 0x00, 0x00,
  0x00, 0x00, 0x00, 0x50, 0x11, 0x49, 0x04, 0xa8, 0x4a, 0x89, 0x29, 0x95,
  0x2a, 0x89, 0x14, 0x0a, 0xa5, 0x94, 0x00, 0x00, 0x00, 0x49, 0x00, 0x21,
  0x85, 0x4a, 0x25, 0xa4, 0x8a, 0x10, 0x11, 0x45, 0x26, 0x09, 0x00, 0x00,
  0x00, 0x00, 0x00, 0x00, 0x00, 0xd2, 0x13, 0x49, 0x44, 0xa8, 0x4a, 0x05,
  0x2a, 0x95, 0x2a, 0x85, 0x14, 0x0a, 0xa5, 0x94, 0x00, 0x00, 0x80, 0x48,
  0x00, 0x21, 0x85, 0x4a, 0x25, 0xa4, 0x8a, 0x08, 0x09, 0x45, 0x2a, 0x09,
  0x00, 0x00, 0x00, 0x00, 0x00, 0x00, 0x00, 0x0c, 0xe1, 0xc8, 0x3b, 0x18,
  0x73, 0x8e, 0x31, 0xe5, 0x2c, 0x0e, 0xe3, 0x0a, 0x25, 0x23, 0x05, 0x00,
  0x80, 0x33, 0x00, 0xc1, 0x84, 0x4c, 0x39, 0xc4, 0x8c, 0x04, 0x79, 0x82,
  0x2a, 0x09, 0x00, 0x00, 0x00, 0x00, 0x00, 0x00, 0x00, 0x00, 0x00, 0x00,
  0x00, 0x00, 0x00, 0x00, 0x00, 0x00, 0x00, 0x00, 0x00, 0x00, 0x00, 0x00,
  0x00, 0x00, 0x00, 0x00, 0x00, 0x00, 0x00, 0x00, 0x20, 0x00, 0x00, 0x01,
  0x00, 0x00, 0x00, 0x04, 0x00, 0x00, 0x00, 0x00, 0x00, 0x00, 0x00, 0x00,
  0x00, 0x00, 0x00, 0x00, 0x00, 0x00, 0x00, 0x00, 0x00, 0x00, 0x00, 0x00,
  0x00, 0x00, 0x00, 0x00, 0x00, 0x00, 0x00, 0x00, 0x00, 0x00, 0x18, 0x00,
  0x00, 0x00, 0x00, 0x00, 0x00, 0x00, 0x00, 0x00, 0x00, 0x00, 0x00, 0x00,
  0x00, 0x00, 0x00, 0x00, 0x00, 0x00, 0x00, 0x00, 0x00, 0x00, 0x00, 0x00,
  0x00, 0x00, 0x00, 0x00, 0x00, 0x00, 0x00, 0x00, 0x00, 0x00, 0x00, 0x00,
  0x00, 0x00, 0x00, 0x00, 0x00, 0x00, 0x00, 0x00, 0x00, 0x00, 0x00, 0x00,
  0x00, 0x00, 0x00, 0xce, 0x01, 0xc8, 0x3b, 0x00, 0x00, 0x00, 0x00, 0x00,
  0x80, 0x00, 0x02, 0x01, 0x00, 0x00, 0x00, 0x00, 0x00, 0x21, 0x00, 0x51,
  0x00, 0x00, 0x10, 0x54, 0x00, 0x00, 0x00, 0x00, 0x00, 0x00, 0x00, 0x00,
  0x00, 0x00, 0x00, 0x00, 0x00, 0x42, 0xe0, 0x48, 0x44, 0x00, 0x40, 0x02,
  0x00, 0x00, 0x00, 0x00, 0x22, 0x00, 0x00, 0x00, 0x00, 0x00, 0x94, 0x32,
  0x00, 0x11, 0x09, 0x00, 0x00, 0x42, 0x00, 0x00, 0x00, 0x00, 0x00, 0x00,
  0x00, 0x00, 0x00, 0x00, 0x00, 0x00, 0x00, 0xce, 0x11, 0xc9, 0x05, 0x78,
  0xcc, 0x66, 0xe6, 0x66, 0x98, 0xe0, 0x6a, 0x15, 0x00, 0x00, 0x00, 0x00,
  0x08, 0x22, 0x00, 0x5f, 0x9b, 0x19, 0x13, 0x56, 0x66, 0x00, 0x00, 0x00,
  0x00, 0x00, 0x00, 0x00, 0x00, 0x00, 0x00, 0x00, 0x00, 0x10, 0x12, 0x49,
  0x04, 0xa8, 0x52, 0x52, 0x95, 0x92, 0xa4, 0x90, 0x26, 0x15, 0x00, 0x00,
  0x00, 0x00, 0x14, 0x21, 0x00, 0x51, 0x49, 0x89, 0x14, 0x52, 0xa9, 0x00,
  0x00, 0x00, 0x00, 0x00, 0x00, 0x00, 0x00, 0x00, 0x00, 0x00, 0x00, 0x52,
  0x12, 0x49, 0x44, 0xa8, 0x52, 0x52, 0x95, 0x52, 0x94, 0x90, 0x2a, 0x09,
  0x00, 0x00, 0x00, 0x00, 0x80, 0x20, 0x00, 0x51, 0x49, 0x89, 0x12, 0x52,
  0xa5, 0x00, 0x00, 0x00, 0x00, 0x00, 0x00, 0x00, 0x00, 0x00, 0x00, 0x00,
  0x00, 0x8c, 0xe1, 0xc8, 0x3b, 0xa8, 0x8c, 0x64, 0xe6, 0xe2, 0xb8, 0xe0,
  0x4a, 0x09, 0x00, 0x00, 0x00, 0x00, 0x80, 0x23, 0x00, 0x51, 0x92, 0x09,
  0x17, 0x52, 0xae, 0x00, 0x00, 0x00, 0x00, 0x00, 0x00, 0x00, 0x00, 0x00,
  0x00, 0x00, 0x00, 0x00, 0x00, 0x00, 0x00, 0x00, 0x00, 0x00, 0x04, 0x00,
  0x80, 0x00, 0x00, 0x00, 0x00, 0x00, 0x00, 0x00, 0x00, 0x00, 0x00, 0x00,
  0x00, 0x00, 0x10, 0x00, 0x00, 0x00, 0x00, 0x00, 0x00, 0x00, 0x00, 0x00,
  0x00, 0x00, 0x00, 0x00, 0x00, 0x00, 0x00, 0x00, 0x00, 0x00, 0x00, 0x00,
  0x03, 0x00, 0x40, 0x00, 0x00, 0x00, 0x00, 0x00, 0x00, 0x00, 0x00, 0x00,
  0x00, 0x00, 0x00, 0x00, 0x08, 0x00, 0x00, 0x00, 0x00, 0x00, 0x00, 0x00,
  0x00, 0x00, 0x00, 0x00, 0x00, 0x00, 0x00, 0x00, 0x00, 0x00, 0x00, 0x00,
  0x00, 0x00, 0x00, 0x00, 0x00, 0x00, 0x00, 0x00, 0x00, 0x00, 0x00, 0x00,
  0x00, 0x00, 0x00, 0x0e, 0x0a, 0x02, 0x00, 0x00, 0x00, 0x00, 0x00, 0x00,
  0x00, 0x00, 0x00, 0x00, 0x00, 0x00, 0x00, 0x00, 0x00, 0x8e, 0x01, 0xc8,
  0x3b, 0x80, 0x02, 0x04, 0x00, 0x80, 0x00, 0x81, 0x00, 0x00, 0x00, 0x00,
  0x00, 0x00, 0x00, 0x11, 0x00, 0x51, 0x0a, 0x10, 0x00, 0x00, 0x08, 0x00,
  0x00, 0x00, 0x00, 0x00, 0x00, 0x00, 0x00, 0x00, 0x00, 0x00, 0x00, 0x42,
  0xe0, 0x48, 0x44, 0x00, 0x00, 0x04, 0x00, 0x00, 0x00, 0x11, 0x00, 0x00,
  0x00, 0x00, 0x00, 0x00, 0x80, 0x2a, 0x00, 0xd1, 0x0a, 0x37, 0x33, 0x30,
  0x9b, 0x01, 0x00, 0x00, 0x00, 0x00, 0x00, 0x00, 0x00, 0x00, 0x00, 0x00,
  0x00, 0xce, 0x11, 0xc9, 0x05, 0x98, 0x3b, 0x66, 0x33, 0x98, 0x70, 0xb5,
  0x0a, 0x00, 0x00, 0x00, 0x00, 0x00, 0x00, 0x22, 0x00, 0x51, 0x8a, 0x94,
  0x54, 0x98, 0xca, 0x00, 0x00, 0x00, 0x00, 0x00, 0x00, 0x00, 0x00, 0x00,
  0x00, 0x00, 0x00, 0x50, 0x12, 0x49, 0x04, 0x4c, 0x4a, 0x55, 0x49, 0xa4,
  0x48, 0x93, 0x0a, 0x00, 0x00, 0x00, 0x00, 0x00, 0x00, 0x11, 0x00, 0x51,
  0x8a, 0x94, 0x52, 0xa0, 0x0a, 0x01, 0x00, 0x00, 0x00, 0x00, 0x00, 0x00,
  0x00, 0x00, 0x00, 0x00, 0x00, 0x52, 0x12, 0x49, 0x44, 0x50, 0x4a, 0x55,
  0x29, 0x94, 0x48, 0x95, 0x04, 0x00, 0x00, 0x00, 0x00, 0x00, 0x80, 0x08,
  0x00, 0x8e, 0x0a, 0x27, 0x57, 0x18, 0xd3, 0x00, 0x00, 0x00, 0x00, 0x00,
  0x00, 0x00, 0x00, 0x00, 0x00, 0x00, 0x00, 0x8c, 0xe1, 0xc8, 0x3b, 0x8c,
  0x4b, 0x66, 0x71, 0xb8, 0x70, 0xa5, 0x04, 0x00, 0x00, 0x00, 0x00, 0x00,
  0x80, 0x3b, 0x00, 0x00, 0x00, 0x00, 0x00, 0x00, 0x00, 0x00, 0x00, 0x00,
  0x00, 0x00, 0x00, 0x00, 0x00, 0x00, 0x00, 0x00, 0x00, 0x00, 0x00, 0x00,
  0x00, 0x00, 0x00, 0x00, 0x00, 0x80, 0x00, 0x00, 0x00, 0x00, 0x00, 0x00,
  0x00, 0x00, 0x00, 0x00, 0x00, 0x00, 0x00, 0x00, 0x00, 0x00, 0x00, 0x00,
  0x00, 0x00, 0x00, 0x00, 0x00, 0x00, 0x00, 0x00, 0x00, 0x00, 0x00, 0x00,
  0x00, 0x00, 0x00, 0x00, 0x00, 0x00, 0x00, 0x40, 0x00, 0x00, 0x00, 0x00,
  0x00, 0x00, 0x00, 0x00, 0x00, 0x00, 0x00, 0x00, 0x00, 0x00, 0x00, 0x00,
  0x00, 0x00, 0x00, 0x00, 0x00, 0x00, 0x00, 0x00, 0x00, 0x00, 0x00, 0x00,
  0x00, 0x00, 0x00, 0x00, 0x00, 0x00, 0x00, 0x00, 0x00, 0x00, 0x00, 0x00,
  0x00, 0x00, 0x00, 0x00, 0x00, 0x00, 0x00, 0x00, 0x00, 0xf5, 0x9d, 0x02,
  0x00, 0x00, 0x00, 0x00, 0x00, 0x00, 0x00, 0x00, 0x00, 0x00, 0x00, 0x00,
  0x00, 0x00, 0x00, 0xce, 0x03, 0x78, 0x00, 0x02, 0x01, 0x00, 0x00, 0x08,
  0x08, 0x28, 0x08, 0x00, 0x10, 0x00, 0x00, 0x00, 0x00, 0x19, 0x00, 0x45,
  0xa2, 0x02, 0x40, 0x00, 0x00, 0x00, 0x00, 0x00, 0x00, 0x00, 0x00, 0x00,
  0x00, 0x00, 0x00, 0x00, 0x00, 0x02, 0x02, 0x08, 0x00, 0x22, 0x00, 0x00,
  0x00, 0x00, 0x08, 0x04, 0x00, 0x00, 0x10, 0x00, 0x00, 0x00, 0x80, 0x22,
  0x00, 0x40, 0x22, 0x80, 0x59, 0x1d, 0x63, 0x00, 0x00, 0x00, 0x00, 0x00,
  0x00, 0x00, 0x00, 0x00, 0x00, 0x00, 0x00, 0x0e, 0x01, 0x78, 0x69, 0x6a,
  0x99, 0x31, 0x83, 0x09, 0xce, 0xac, 0xc9, 0xcc, 0x1c, 0x00, 0x00, 0x00,
  0x00, 0x12, 0x00, 0x40, 0x22, 0xc0, 0xd4, 0xa4, 0x32, 0x00, 0x00, 0x00,
  0x00, 0x00, 0x00, 0x00, 0x00, 0x00, 0x00, 0x00, 0x00, 0x90, 0x00, 0x08,
  0xa9, 0x26, 0xa5, 0x4a, 0x45, 0x0a, 0x29, 0xa5, 0x2a, 0xa5, 0x12, 0x00,
  0x00, 0x00, 0x00, 0x21, 0x00, 0x40, 0x22, 0x00, 0x55, 0xa5, 0x42, 0x00,
  0x00, 0x00, 0x00, 0x00, 0x00, 0x00, 0x00, 0x00, 0x00, 0x00, 0x00, 0x92,
  0x00, 0x08, 0xa9, 0x2a, 0xa5, 0x2a, 0x45, 0x09, 0xa9, 0xa4, 0xaa, 0xa4,
  0x12, 0x00, 0x00, 0x00, 0x80, 0x1b, 0x00, 0x40, 0x1c, 0xc0, 0x58, 0x25,
  0x33, 0x00, 0x00, 0x00, 0x00, 0x00, 0x00, 0x00, 0x00, 0x00, 0x00, 0x00,
  0x00, 0x8c, 0x00, 0x08, 0xae, 0x4a, 0x99, 0x72, 0x85, 0x0b, 0xce, 0xa5,
  0xca, 0xc5, 0x1c, 0x00, 0x00, 0x00, 0x00, 0x00, 0x00, 0x00, 0x00, 0x00,
  0x00, 0x00, 0x00, 0x00, 0x00, 0x00, 0x00, 0x00, 0x00, 0x00, 0x00, 0x00,
  0x00, 0x00, 0x00, 0x00, 0x00, 0x00, 0x00, 0x00, 0x00, 0x00, 0x00, 0x08,
  0x00, 0x00, 0x00, 0x00, 0x00, 0x00, 0x00, 0x00, 0x00, 0x00, 0x00, 0x00,
  0x00, 0x00, 0x00, 0x00, 0x00, 0x00, 0x00, 0x00, 0x00, 0x00, 0x00, 0x00,
  0x00, 0x00, 0x00, 0x00, 0x00, 0x00, 0x00, 0x00, 0x00, 0x00, 0x00, 0x00,
  0x00, 0x04, 0x00, 0x00, 0x00, 0x00, 0x00, 0x00, 0x00, 0x00, 0x00, 0x00,
  0x00, 0x00, 0x00, 0x00, 0x00, 0x00, 0x00, 0x00, 0x00, 0x00, 0x00, 0x00,
  0x00, 0x00, 0x00, 0x00, 0x00, 0x00, 0x00, 0x8e, 0x01, 0x70, 0x40, 0x21,
  0x00, 0x00, 0x10, 0x00, 0x10, 0x48, 0x01, 0x00, 0x00, 0x00, 0x00, 0x00,
  0x00, 0x01, 0x00, 0x15, 0xbd, 0xf8, 0x15, 0x00, 0x01, 0x00, 0x00, 0x00,
  0x00, 0x00, 0x00, 0x00, 0x00, 0x00, 0x00, 0x00, 0x00, 0x42, 0x02, 0x88,
  0x00, 0x05, 0x10, 0x02, 0x10, 0x00, 0x00, 0x08, 0x40, 0x00, 0x00, 0x00,
  0x00, 0x00, 0x80, 0x22, 0x00, 0x35, 0x05, 0x45, 0x14, 0x00, 0x01, 0x00,
  0x00, 0x00, 0x00, 0x00, 0x00, 0x00, 0x00, 0x00, 0x00, 0x00, 0x00, 0x8e,
  0x01, 0x88, 0x5c, 0x2d, 0x37, 0x36, 0x56, 0xe6, 0xd0, 0xc9, 0xd9, 0x00,
  0x00, 0x00, 0x00, 0x00, 0x00, 0x32, 0x00, 0x50, 0x1d, 0x42, 0x00, 0x66,
  0x65, 0x9c, 0x01, 0x00, 0x00, 0x00, 0x00, 0x00, 0x00, 0x00, 0x00, 0x00,
  0x00, 0x50, 0x02, 0x88, 0x52, 0xa5, 0x14, 0x4a, 0x31, 0x29, 0x51, 0x2a,
  0x4d, 0x00, 0x00, 0x00, 0x00, 0x00, 0x00, 0x29, 0x00, 0x50, 0x05, 0x42,
  0x00, 0x53, 0xa3, 0xd2, 0x00, 0x00, 0x00, 0x00, 0x00, 0x00, 0x00, 0x00,
  0x00, 0x00, 0x00, 0x52, 0x02, 0x88, 0x52, 0xa5, 0x14, 0x2a, 0x51, 0x25,
  0x51, 0x2a, 0x51, 0x00, 0x00, 0x00, 0x00, 0x00, 0x80, 0x78, 0x00, 0x90,
  0x05, 0x45, 0x00, 0x54, 0xa5, 0x12, 0x01, 0x00, 0x00, 0x00, 0x00, 0x00,
  0x00, 0x00, 0x00, 0x00, 0x00, 0x8c, 0x01, 0x70, 0x5c, 0x29, 0x27, 0x74,
  0x56, 0x2e, 0x51, 0xca, 0x8d, 0x00, 0x00, 0x00, 0x00, 0x00, 0x80, 0x23,
  0x00, 0x10, 0xbd, 0x48, 0x00, 0x63, 0xa5, 0xdc, 0x00, 0x00, 0x00, 0x00,
  0x00, 0x00, 0x00, 0x00, 0x00, 0x00, 0x00, 0x00, 0x00, 0x00, 0x10, 0x00,
  0x04, 0x00, 0x00, 0x00, 0x00, 0x00, 0x00, 0x00, 0x00, 0x00, 0x00, 0x00,
  0x00, 0x00, 0x00, 0x00, 0x00, 0x00, 0x00, 0x00, 0x00, 0x00, 0x00, 0x00,
  0x00, 0x00, 0x00, 0x00, 0x00, 0x00, 0x00, 0x00, 0x00, 0x00, 0x00, 0x00,
  0x0c, 0x00, 0x03, 0x00, 0x00, 0x00, 0x00, 0x00, 0x00, 0x00, 0x00, 0x00,
  0x00, 0x00, 0x00, 0x00, 0x00, 0x00, 0x00, 0x00, 0x00, 0x00, 0x00, 0x00,
  0x00, 0x00, 0x00, 0x00, 0x00, 0x00, 0x00, 0x00, 0x00, 0x00, 0x00, 0x00,
  0x00, 0x00, 0x00, 0x00, 0x00, 0x00, 0x00, 0x00, 0x00, 0x00, 0x00, 0x00,
  0x00, 0x00, 0x00, 0x00, 0x00, 0x00, 0x00, 0x00, 0x00, 0x00, 0x00, 0x00,
  0x00, 0x00, 0x00, 0x00, 0x00, 0x00, 0x00, 0x00, 0x00, 0x00, 0x00, 0x00,
  0x00, 0x8e, 0x01, 0x78, 0x20, 0x00, 0x00, 0x00, 0x00, 0x02, 0x00, 0x00,
  0x00, 0x00, 0x00, 0x00, 0x00, 0x00, 0x00, 0x39, 0x00, 0x0f, 0x04, 0x81,
  0x00, 0x00, 0x00, 0x00, 0x02, 0x80, 0x72, 0xa2, 0x02, 0x00, 0x00, 0x00,
  0x00, 0x00, 0x00, 0x42, 0x02, 0x08, 0x20, 0x00, 0x00, 0x00, 0x00, 0x01,
  0x00, 0x20, 0x00, 0x00, 0x00, 0x00, 0x00, 0x00, 0x80, 0x0a, 0x00, 0x01,
  0x04, 0x11, 0x00, 0x00, 0x02, 0x00, 0x09, 0x80, 0x8a, 0xa6, 0x02, 0x00,
  0x00, 0x00, 0x00, 0x00, 0x00, 0x4e, 0x02, 0x08, 0x26, 0xce, 0xc6, 0xe6,
  0x3e, 0x93, 0x7d, 0x6c, 0x00, 0x00, 0x00, 0x00, 0x00, 0x00, 0x00, 0x3a,
  0x00, 0xc1, 0x64, 0xb5, 0x1c, 0xcc, 0x66, 0x30, 0x9b, 0x19, 0x88, 0x2a,
  0x00, 0x00, 0x00, 0x00, 0x00, 0x00, 0x00, 0x90, 0x03, 0x78, 0x29, 0x52,
  0xa9, 0x92, 0x4a, 0xa9, 0xa4, 0x2a, 0x00, 0x00, 0x00, 0x00, 0x00, 0x00,
  0x00, 0x41, 0x00, 0x2f, 0x55, 0x93, 0x12, 0xa6, 0x32, 0x48, 0x49, 0x0a,
  0x88, 0x2a, 0x00, 0x00, 0x00, 0x00, 0x00, 0x00, 0x00, 0x12, 0x02, 0x08,
  0x25, 0x52, 0xa9, 0x92, 0x4a, 0xa9, 0xa4, 0x2a, 0x00, 0x00, 0x00, 0x00,
  0x00, 0x00, 0x80, 0x48, 0x00, 0xa1, 0x54, 0x95, 0x12, 0xa8, 0x42, 0x28,
  0x49, 0x09, 0x88, 0x32, 0x00, 0x00, 0x00, 0x00, 0x00, 0x00, 0x00, 0x8c,
  0x01, 0x08, 0x2e, 0x4e, 0xc6, 0xe2, 0x4a, 0x91, 0xa4, 0x4c, 0x00, 0x00,
  0x00, 0x00, 0x00, 0x00, 0x80, 0x33, 0x00, 0xc1, 0x65, 0xa5, 0x1c, 0xc6,
  0x34, 0x70, 0x91, 0x0b, 0x70, 0x22, 0x00, 0x00, 0x00, 0x00, 0x00, 0x00,
  0x00, 0x00, 0x00, 0x00, 0x00, 0x02, 0x80, 0x00, 0x00, 0x00, 0x00, 0x00,
  0x00, 0x00, 0x00, 0x00, 0x00, 0x00, 0x00, 0x00, 0x00, 0x00, 0x00, 0x00,
  0x10, 0x00, 0x00, 0x00, 0x00, 0x00, 0x00, 0x00, 0x00, 0x00, 0x00, 0x00,
  0x00, 0x00, 0x00, 0x00, 0x00, 0x00, 0x00, 0x02, 0xc0, 0x00, 0x00, 0x00,
  0x00, 0x00, 0x00, 0x00, 0x00, 0x00, 0x00, 0x00, 0x00, 0x00, 0x00, 0x00,
  0x00, 0x00, 0x0c, 0x00, 0x00, 0x00, 0x00, 0x00, 0x00, 0x00, 0x00, 0x00,
  0x00, 0x00, 0x00, 0x00, 0x00, 0x00, 0x00, 0x00, 0x00, 0x00, 0x00, 0x00,
  0x00, 0x00, 0x00, 0x00, 0x00, 0x00, 0x00, 0x00, 0x00, 0x00, 0x00, 0x00,
  0x00, 0x00, 0x00, 0x00, 0x00, 0x00, 0x00, 0x00, 0x00, 0x00, 0x00, 0x00,
  0x00, 0x00, 0x00, 0x00, 0x00, 0x00, 0x00, 0x8c, 0x01, 0x78, 0x02, 0x80,
  0x00, 0x00, 0x00, 0x62, 0x08, 0x01, 0x00, 0x00, 0x00, 0x00, 0x00, 0x00,
  0x00, 0x31, 0x00, 0x0f, 0x44, 0x70, 0x22, 0x00, 0x00, 0x80, 0x00, 0x00,
  0x00, 0x00, 0x00, 0x00, 0x00, 0x00, 0x00, 0x00, 0x00, 0x42, 0x02, 0x88,
  0x08, 0x80, 0x00, 0x00, 0x08, 0x13, 0x08, 0x04, 0x00, 0x00, 0x00, 0x00,
  0x00, 0x00, 0x80, 0x0a, 0x00, 0x01, 0x04, 0x88, 0x26, 0x40, 0x02, 0x80,
  0x00, 0x00, 0x00, 0x00, 0x00, 0x00, 0x00, 0x00, 0x00, 0x00, 0x00, 0x4e,
  0x02, 0x78, 0x1a, 0xe6, 0x36, 0x66, 0x30, 0x72, 0x38, 0xcd, 0x06, 0x00,
  0x00, 0x00, 0x00, 0x00, 0x00, 0x3a, 0x00, 0xc1, 0x44, 0x88, 0x2a, 0xd4,
  0xb6, 0xb2, 0x02, 0x00, 0x00, 0x00, 0x00, 0x00, 0x00, 0x00, 0x00, 0x00,
  0x00, 0x52, 0x02, 0x88, 0x0a, 0x95, 0x4a, 0x33, 0x40, 0x92, 0x48, 0xa5,
  0x02, 0x00, 0x00, 0x00, 0x00, 0x00, 0x00, 0x49, 0x00, 0x2f, 0x45, 0x88,
  0xaa, 0x55, 0x92, 0x8a, 0x01, 0x00, 0x00, 0x00, 0x00, 0x00, 0x00, 0x00,
  0x00, 0x00, 0x00, 0x52, 0x02, 0x88, 0x0a, 0x95, 0x2a, 0x44, 0x30, 0x92,
  0x48, 0xa5, 0x02, 0x00, 0x00, 0x00, 0x00, 0x00, 0x80, 0x48, 0x00, 0xa1,
  0x44, 0x88, 0x32, 0x54, 0x92, 0x8a, 0x02, 0x00, 0x00, 0x00, 0x00, 0x00,
  0x00, 0x00, 0x00, 0x00, 0x00, 0x8c, 0x01, 0x78, 0x12, 0xe6, 0x72, 0x33,
  0x08, 0x62, 0x38, 0xc9, 0x02, 0x00, 0x00, 0x00, 0x00, 0x00, 0x80, 0x33,
  0x00, 0xc1, 0x45, 0x70, 0x22, 0x98, 0x14, 0xb1, 0x02, 0x00, 0x00, 0x00,
  0x00, 0x00, 0x00, 0x00, 0x00, 0x00, 0x00, 0x00, 0x00, 0x00, 0x00, 0x00,
  0x00, 0x00, 0x00, 0x00, 0x00, 0x00, 0x00, 0x00, 0x00, 0x00, 0x00, 0x00,
  0x00, 0x00, 0x00, 0x00, 0x00, 0x00, 0x00, 0x00, 0x00, 0x01, 0x00, 0x00,
  0x00, 0x00, 0x00, 0x00, 0x00, 0x00, 0x00, 0x00, 0x00, 0x00, 0x00, 0x00,
  0x00, 0x00, 0x00, 0x00, 0x00, 0x00, 0x00, 0x00, 0x00, 0x00, 0x00, 0x00,
  0x00, 0x00, 0x00, 0x00, 0x00, 0x00, 0x00, 0x00, 0x00, 0x00, 0x80, 0x00,
  0x00, 0x00, 0x00, 0x00, 0x00, 0x00, 0x00, 0x00, 0x00, 0x00, 0x00, 0x00,
  0x00, 0x00, 0x00, 0x00, 0x00, 0x00, 0x00, 0x00, 0x00, 0x00, 0x00, 0x00,
  0x00, 0x00, 0x00, 0x00, 0x00, 0x00, 0x00, 0x00, 0x00, 0x00, 0x00, 0x00,
  0x00, 0x00, 0x00, 0x00, 0x00, 0x00, 0x00, 0x00, 0x00, 0x00, 0x00, 0x00,
  0x00, 0x8c, 0x00, 0x48, 0x00, 0x00, 0x00, 0x00, 0x04, 0x00, 0x00, 0x00,
  0x00, 0x00, 0x00, 0x00, 0x00, 0x00, 0x00, 0x7b, 0x00, 0x15, 0x79, 0xf5,
  0x15, 0x00, 0x00, 0xa8, 0xe7, 0x3c, 0x05, 0x00, 0x00, 0x00, 0x00, 0x00,
  0x00, 0x00, 0x00, 0xc2, 0x00, 0x28, 0x00, 0x00, 0x00, 0x00, 0x04, 0x00,
  0x00, 0x00, 0x00, 0x00, 0x00, 0x00, 0x00, 0x00, 0x80, 0x44, 0x00, 0x35,
  0x09, 0x45, 0x14, 0x10, 0x00, 0xa8, 0x10, 0x45, 0x05, 0x00, 0x00, 0x00,
  0x00, 0x00, 0x00, 0x00, 0x00, 0x8e, 0x00, 0x18, 0xe6, 0xf3, 0x31, 0xcc,
  0xd5, 0x31, 0x03, 0x00, 0x00, 0x00, 0x00, 0x00, 0x00, 0x00, 0x00, 0x24,
  0x00, 0x50, 0x39, 0x42, 0x00, 0x35, 0x37, 0x80, 0x17, 0x3d, 0x00, 0x00,
  0x00, 0x00, 0x00, 0x00, 0x00, 0x00, 0x00, 0x92, 0x00, 0x28, 0xa9, 0x54,
  0x2a, 0x26, 0x4d, 0xaa, 0x01, 0x00, 0x00, 0x00, 0x00, 0x00, 0x00, 0x00,
  0x00, 0x13, 0x00, 0x50, 0x09, 0x42, 0x00, 0x95, 0x54, 0x80, 0x10, 0x45,
  0x00, 0x00, 0x00, 0x00, 0x00, 0x00, 0x00, 0x00, 0x00, 0x92, 0x00, 0x48,
  0xa9, 0x54, 0x2a, 0x28, 0x55, 0x2a, 0x02, 0x00, 0x00, 0x00, 0x00, 0x00,
  0x00, 0x00, 0x80, 0x10, 0x00, 0x90, 0x09, 0x45, 0x00, 0x95, 0x54, 0x80,
  0xe0, 0x44, 0x00, 0x00, 0x00, 0x00, 0x00, 0x00, 0x00, 0x00, 0x00, 0x8c,
  0x00, 0x48, 0xa6, 0x54, 0x32, 0xc6, 0x55, 0xb2, 0x01, 0x00, 0x00, 0x00,
  0x00, 0x00, 0x00, 0x00, 0x80, 0x17, 0x00, 0x10, 0x79, 0x45, 0x00, 0x26,
  0x57, 0x00, 0x00, 0x00, 0x00, 0x00, 0x00, 0x00, 0x00, 0x00, 0x00, 0x00,
  0x00, 0x00, 0x00, 0x00, 0x00, 0x00, 0x00, 0x00, 0x00, 0x00, 0x00, 0x00,
  0x00, 0x00, 0x00, 0x00, 0x00, 0x00, 0x00, 0x00, 0x00, 0x00, 0x00, 0x00,
  0x00, 0x00, 0x00, 0x00, 0x00, 0x00, 0x00, 0x00, 0x00, 0x00, 0x00, 0x00,
  0x00, 0x00, 0x00, 0x00, 0x00, 0x00, 0x00, 0x00, 0x00, 0x00, 0x00, 0x00,
  0x00, 0x00, 0x00, 0x00, 0x00, 0x00, 0x00, 0x00, 0x00, 0x00, 0x00, 0x00,
  0x00, 0x00, 0x00, 0x00, 0x00, 0x00, 0x00, 0x00, 0x00, 0x00, 0x00, 0x00,
  0x00, 0x00, 0x00, 0x00, 0x00, 0x00, 0x00, 0x00, 0x00, 0x00, 0x00, 0x00,
  0x00, 0x00, 0x00, 0x00, 0x00, 0x00, 0x00, 0x00, 0x00, 0x00, 0x00, 0x00,
  0x00, 0x00, 0x00, 0x00, 0x00, 0x00, 0x00, 0x00, 0x00, 0x00, 0x00, 0x00,
  0x00, 0x00, 0x00, 0x00, 0x00, 0x00, 0x00, 0x8c, 0x01, 0x38, 0xce, 0x07,
  0x10, 0x00, 0x00, 0x00, 0x00, 0x64, 0x00, 0x84, 0x01, 0x00, 0x00, 0x00,
  0x00, 0x33, 0x00, 0x0f, 0x04, 0x00, 0x04, 0x01, 0x02, 0x08, 0x00, 0x54,
  0xf4, 0xf2, 0x2b, 0x00, 0x00, 0x00, 0x00, 0x00, 0x00, 0x42, 0x02, 0x48,
  0x11, 0x01, 0x10, 0x00, 0x00, 0x20, 0x00, 0x02, 0x00, 0x04, 0x00, 0x00,
  0x00, 0x00, 0x80, 0x4c, 0x00, 0xc1, 0x04, 0x00, 0x00, 0x01, 0x02, 0x24,
  0x00, 0xd4, 0x14, 0x92, 0x28, 0x00, 0x00, 0x00, 0x00, 0x00, 0x00, 0x0e,
  0x02, 0x48, 0x11, 0xc1, 0xdc, 0xc6, 0x0c, 0x69, 0x76, 0x66, 0x86, 0x95,
  0xdb, 0xc7, 0x0c, 0x00, 0x00, 0x34, 0x00, 0x2f, 0x45, 0xb9, 0x65, 0x63,
  0xc2, 0x6c, 0x66, 0x40, 0x75, 0x8c, 0x00, 0x00, 0x00, 0x00, 0x00, 0x00,
  0x00, 0x92, 0x01, 0x48, 0x11, 0xad, 0x52, 0x69, 0x06, 0x29, 0x95, 0x92,
  0xc2, 0x4c, 0x4a, 0x29, 0x15, 0x00, 0x00, 0x4b, 0x00, 0xe1, 0x45, 0xa5,
  0x54, 0x95, 0x22, 0x25, 0x29, 0x40, 0x15, 0x8c, 0x00, 0x00, 0x00, 0x00,
  0x00, 0x00, 0x00, 0x52, 0x00, 0x48, 0x11, 0xa1, 0x52, 0x85, 0x08, 0x29,
  0x95, 0x92, 0x02, 0x55, 0x4a, 0xa9, 0x14, 0x00, 0x80, 0x48, 0x00, 0x21,
  0x44, 0xa5, 0x54, 0x55, 0xa2, 0x24, 0x25, 0x40, 0x16, 0x92, 0x00, 0x00,
  0x00, 0x00, 0x00, 0x00, 0x00, 0xcc, 0x03, 0x38, 0x0e, 0xc1, 0x5c, 0x6e,
  0x06, 0x6e, 0x96, 0x62, 0xc2, 0x94, 0x4b, 0xc9, 0x15, 0x00, 0x80, 0x37,
  0x00, 0xc1, 0x84, 0xb8, 0x64, 0xe3, 0xc2, 0x45, 0x2e, 0x40, 0xf4, 0x92,
  0x00, 0x00, 0x00, 0x00, 0x00, 0x00, 0x00, 0x00, 0x00, 0x00, 0x00, 0x00,
  0x00, 0x00, 0x00, 0x00, 0x00, 0x00, 0x00, 0x00, 0x00, 0x00, 0x00, 0x00,
  0x00, 0x00, 0x00, 0x00, 0x00, 0x00, 0x00, 0x00, 0x00, 0x00, 0x00, 0x00,
  0x00, 0x00, 0x00, 0x00, 0x00, 0x00, 0x00, 0x00, 0x00, 0x00, 0x00, 0x00,
  0x00, 0x00, 0x00, 0x00, 0x00, 0x00, 0x00, 0x00, 0x00, 0x00, 0x00, 0x00,
  0x00, 0x00, 0x00, 0x00, 0x00, 0x00, 0x00, 0x00, 0x00, 0x00, 0x00, 0x00,
  0x00, 0x00, 0x00, 0x00, 0x00, 0x00, 0x00, 0x00, 0x00, 0x00, 0x00, 0x00,
  0x00, 0x00, 0x00, 0x00, 0x00, 0x00, 0x00, 0x00, 0x00, 0x00, 0x00, 0x00,
  0x00, 0x00, 0x00, 0x00, 0x00, 0x00, 0x00, 0x00, 0x00, 0x00, 0x00, 0x00,
  0x00, 0x00, 0x40, 0x39, 0x8e, 0x93, 0x4e, 0x01, 0x00, 0x00, 0x00, 0x00,
  0x00, 0x8c, 0x01, 0x28, 0x63, 0x0a, 0x00, 0x02, 0x00, 0x00, 0x00, 0x00,
  0x00, 0x00, 0x00, 0x00, 0x00, 0x00, 0x00, 0x31, 0x00, 0xf5, 0xfc, 0x97,
  0x9e, 0xa8, 0x00, 0x01, 0x40, 0x45, 0x51, 0x90, 0x52, 0x01, 0x00, 0x00,
  0x00, 0x00, 0x00, 0x42, 0x02, 0xa8, 0x14, 0x0a, 0x00, 0x02, 0x00, 0x00,
  0x00, 0x00, 0x00, 0x00, 0x00, 0x00, 0x00, 0x00, 0x80, 0x4a, 0x00, 0x15,
  0x05, 0x91, 0xa2, 0xa9, 0x48, 0xb3, 0x03, 0x04, 0x91, 0x93, 0x0e, 0x00,
  0x00, 0x00, 0x00, 0x00, 0x00, 0x0e, 0x01, 0x80, 0x64, 0x00, 0xe6, 0x6a,
  0x9c, 0x01, 0x00, 0x00, 0x00, 0x00, 0x00, 0x00, 0x00, 0x00, 0x00, 0x4a,
  0x00, 0xf0, 0x3c, 0x91, 0x9e, 0x0a, 0x48, 0xa9, 0x04, 0x64, 0x11, 0x94,
  0x12, 0x00, 0x00, 0x00, 0x00, 0x00, 0x00, 0x12, 0x02, 0x80, 0x87, 0x00,
  0x93, 0xa6, 0xd2, 0x00, 0x00, 0x00, 0x00, 0x00, 0x00, 0x00, 0x00, 0x00,
  0x00, 0x71, 0x00, 0x10, 0x05, 0x91, 0xa2, 0x0c, 0x48, 0xa9, 0x04, 0x44,
  0x51, 0x94, 0x12, 0x00, 0x00, 0x00, 0x00, 0x00, 0x00, 0x52, 0x02, 0x80,
  0x94, 0x00, 0x94, 0xaa, 0x12, 0x01, 0x00, 0x00, 0x00, 0x00, 0x00, 0x00,
  0x00, 0x00, 0x80, 0x40, 0x00, 0x10, 0x3d, 0x61, 0xa2, 0x08, 0x70, 0xb2,
  0x04, 0x78, 0x8e, 0x63, 0x0e, 0x00, 0x00, 0x00, 0x00, 0x00, 0x00, 0x8c,
  0x01, 0x80, 0x64, 0x00, 0xe3, 0xaa, 0xdc, 0x00, 0x00, 0x00, 0x00, 0x00,
  0x00, 0x00, 0x00, 0x00, 0x80, 0x33, 0x00, 0x00, 0x00, 0x00, 0x00, 0x00,
  0x00, 0x00, 0x00, 0x00, 0x00, 0x00, 0x00, 0x00, 0x00, 0x00, 0x00, 0x00,
  0x00, 0x00, 0x00, 0x00, 0x00, 0x00, 0x00, 0x00, 0x00, 0x00, 0x00, 0x00,
  0x00, 0x00, 0x00, 0x00, 0x00, 0x00, 0x00, 0x00, 0x00, 0x00, 0x00, 0x00,
  0x00, 0x00, 0x00, 0x00, 0x00, 0x00, 0x00, 0x00, 0x00, 0x00, 0x00, 0x00,
  0x00, 0x00, 0x00, 0x00, 0x00, 0x00, 0x00, 0x00, 0x00, 0x00, 0x00, 0x00,
  0x00, 0x00, 0x00, 0x00, 0x00, 0x00, 0x00, 0x00, 0x00, 0x00, 0x00, 0x00,
  0x00, 0x00, 0x00, 0x00, 0x00, 0x00, 0x00, 0x00, 0x00, 0x00, 0x00, 0x00,
  0x00, 0x00, 0x00, 0x00, 0x00, 0x00, 0x00, 0x00, 0x00, 0x00, 0x00, 0x00,
  0x00, 0x00, 0x00, 0x00, 0x00, 0x00, 0x00, 0x00, 0x00, 0x00, 0x00, 0x23,
  0x00, 0x0f, 0x00, 0x00, 0x00, 0x00, 0x00, 0x00, 0x00, 0x00, 0x00, 0x00,
  0x00, 0x00, 0x00, 0x00, 0x00, 0x00, 0x00, 0x0c, 0x01, 0x78, 0x20, 0x88,
  0x04, 0x78, 0x5e, 0x64, 0x42, 0x0f, 0x00, 0x00, 0x00, 0x00, 0x00, 0x00,
  0x80, 0x54, 0x00, 0x11, 0x04, 0x00, 0x82, 0x00, 0x00, 0x00, 0x00, 0x00,
  0x00, 0x00, 0x00, 0x00, 0x00, 0x00, 0x00, 0x00, 0x00, 0x82, 0x01, 0x08,
  0x26, 0xab, 0xe1, 0x88, 0xc2, 0x94, 0x66, 0x01, 0x00, 0x00, 0x00, 0x00,
  0x00, 0x00, 0x14, 0x52, 0x00, 0x91, 0xcd, 0x60, 0xaa, 0x01, 0x00, 0x00,
  0x00, 0x00, 0x00, 0x00, 0x00, 0x00, 0x00, 0x00, 0x00, 0x00, 0x00, 0x4e,
  0x01, 0x78, 0xa9, 0x9a, 0x94, 0x78, 0x4e, 0x95, 0x5a, 0x0f, 0x00, 0x00,
  0x00, 0x00, 0x00, 0x00, 0x08, 0x54, 0x00, 0x51, 0xa5, 0x30, 0xaa, 0x00,
  0x00, 0x00, 0x00, 0x00, 0x00, 0x00, 0x00, 0x00, 0x00, 0x00, 0x00, 0x00,
  0x00, 0xd2, 0x01, 0x08, 0xa5, 0xaa, 0x94, 0x88, 0x42, 0xf6, 0x5a, 0x01,
  0x00, 0x00, 0x00, 0x00, 0x00, 0x00, 0x94, 0x54, 0x00, 0x51, 0xa5, 0x40,
  0xaa, 0x00, 0x00, 0x00, 0x00, 0x00, 0x00, 0x00, 0x00, 0x00, 0x00, 0x00,
  0x00, 0x00, 0x00, 0x0c, 0x01, 0x08, 0x2e, 0x2b, 0xe5, 0x88, 0x5e, 0x94,
  0x42, 0x0f, 0x00, 0x00, 0x00, 0x00, 0x00, 0x00, 0x00, 0x23, 0x00, 0x8f,
  0xc9, 0x30, 0x32, 0x01, 0x00, 0x00, 0x00, 0x00, 0x00, 0x00, 0x00, 0x00,
  0x00, 0x00, 0x00, 0x00, 0x00, 0x00, 0x00, 0x00, 0x00, 0x00, 0x80, 0x00,
  0x00, 0x00, 0x00, 0x00, 0x00, 0x00, 0x00, 0x00, 0x00, 0x00, 0x00, 0x00,
  0x00, 0x00, 0x00, 0x00, 0x00, 0x00, 0x00, 0x00, 0x00, 0x00, 0x00, 0x00,
  0x00, 0x00, 0x00, 0x00, 0x00, 0x00, 0x00, 0x00, 0x00, 0x00, 0x00, 0x00,
  0x60, 0x00, 0x00, 0x00, 0x00, 0x00, 0x00, 0x00, 0x00, 0x00, 0x00, 0x00,
  0x00, 0x00, 0x00, 0x00, 0x00, 0x00, 0x00, 0x00, 0x00, 0x00, 0x00, 0x00,
  0x00, 0x00, 0x00, 0x00, 0x00, 0x00, 0x00, 0x00, 0x00, 0x00, 0x00, 0x00,
  0x00, 0x00, 0x00, 0x00, 0x00, 0x00, 0x00, 0x00, 0x00, 0x00, 0x00, 0x00,
  0x00, 0x00, 0x00, 0x00, 0x00, 0x00, 0x00, 0x00, 0x00, 0x00, 0x00, 0x00,
  0x00, 0x00, 0x00, 0x00, 0x00, 0x00, 0x00, 0x00, 0x00, 0x00, 0x00, 0xcc,
  0x01, 0x30, 0xa0, 0x42, 0x18, 0xe3, 0x14, 0x00, 0x01, 0x00, 0x10, 0x00,
  0x00, 0x00, 0x00, 0x00, 0x00, 0x23, 0x00, 0x0f, 0x04, 0x02, 0x00, 0xa0,
  0x42, 0x00, 0x00, 0x00, 0x00, 0x01, 0x00, 0x00, 0x00, 0x00, 0x00, 0x00,
  0x00, 0x42, 0x00, 0x08, 0x80, 0x02, 0xa4, 0x10, 0x15, 0x00, 0x04, 0x00,
  0x42, 0x00, 0x00, 0x00, 0x00, 0x00, 0x80, 0x34, 0x00, 0x01, 0x04, 0x82,
  0x00, 0x84, 0x42, 0x00, 0x00, 0x00, 0x00, 0x01, 0x00, 0x00, 0x00, 0x00,
  0x00, 0x00, 0x00, 0xce, 0x01, 0x30, 0xa7, 0x42, 0x24, 0x13, 0x14, 0x6c,
  0xed, 0x63, 0x56, 0x01, 0x00, 0x00, 0x00, 0x00, 0x00, 0x22, 0x00, 0xc1,
  0x84, 0xb3, 0x39, 0xac, 0x42, 0x99, 0xe7, 0xe3, 0xc6, 0x19, 0x00, 0x00,
  0x00, 0x00, 0x00, 0x00, 0x00, 0x12, 0x02, 0x40, 0xa9, 0x42, 0x3c, 0x14,
  0xd4, 0x2a, 0x25, 0x95, 0xd2, 0x00, 0x00, 0x00, 0x00, 0x00, 0x00, 0x24,
  0x00, 0x2f, 0x45, 0xaa, 0x24, 0xa4, 0xc2, 0xa4, 0x2a, 0x95, 0x2a, 0x25,
  0x00, 0x00, 0x00, 0x00, 0x00, 0x00, 0x00, 0x52, 0x02, 0x40, 0xa9, 0x42,
  0xa4, 0x14, 0x15, 0x2a, 0x25, 0x55, 0x52, 0x01, 0x00, 0x00, 0x00, 0x00,
  0x80, 0x24, 0x00, 0xa1, 0x44, 0xaa, 0x24, 0xa4, 0x42, 0xa5, 0x2a, 0x95,
  0x2a, 0x25, 0x00, 0x00, 0x00, 0x00, 0x00, 0x00, 0x00, 0x8c, 0x01, 0x38,
  0xa7, 0x42, 0x24, 0xe3, 0x14, 0x2c, 0x29, 0xe5, 0x54, 0x01, 0x00, 0x00,
  0x00, 0x00, 0x00, 0x23, 0x00, 0xc1, 0x85, 0x33, 0x39, 0xa8, 0x42, 0x99,
  0x2a, 0xe5, 0xca, 0x19, 0x00, 0x00, 0x00, 0x00, 0x00, 0x00, 0x00, 0x00,
  0x00, 0x00, 0x01, 0x00, 0x00, 0x00, 0x00, 0x00, 0x00, 0x00, 0x00, 0x00,
  0x00, 0x00, 0x00, 0x00, 0x00, 0x00, 0x00, 0x00, 0x00, 0x00, 0x00, 0x00,
  0x00, 0x00, 0x00, 0x00, 0x00, 0x00, 0x00, 0x00, 0x00, 0x00, 0x00, 0x00,
  0x00, 0x00, 0x00, 0x00, 0x01, 0x00, 0x00, 0x00, 0x00, 0x00, 0x00, 0x00,
  0x00, 0x00, 0x00, 0x00, 0x00, 0x00, 0x00, 0x00, 0x00, 0x00, 0x00, 0x00,
  0x00, 0x00, 0x00, 0x00, 0x00, 0x00, 0x00, 0x00, 0x00, 0x00, 0x00, 0x00,
  0x00, 0x00, 0x00, 0x00, 0x00, 0x00, 0x00, 0x00, 0x00, 0x00, 0x00, 0x00,
  0x00, 0x00, 0x00, 0x00, 0x00, 0x00, 0x00, 0x00, 0x00, 0x00, 0x00, 0x00,
  0x00, 0x00, 0x00, 0x00, 0x00, 0x00, 0x00, 0x00, 0x00, 0x00, 0x00, 0x00,
  0x00, 0x00, 0x00, 0x00, 0x00, 0x8c, 0x01, 0x30, 0x40, 0x01, 0x00, 0x04,
  0x00, 0x00, 0x40, 0x10, 0x00, 0x00, 0x00, 0x00, 0x00, 0x00, 0x00, 0x23,
  0x00, 0x2f, 0x01, 0x00, 0x84, 0x01, 0x00, 0x00, 0x01, 0x00, 0x00, 0x00,
  0x00, 0x00, 0x00, 0x00, 0x00, 0x00, 0x00, 0x42, 0x00, 0x08, 0x01, 0x00,
  0x00, 0x00, 0x00, 0x00, 0x00, 0x10, 0x00, 0x00, 0x00, 0x00, 0x00, 0x00,
  0x80, 0x54, 0x00, 0x01, 0x01, 0x00, 0x00, 0x00, 0x00, 0x00, 0x01, 0x00,
  0x00, 0x00, 0x00, 0x00, 0x00, 0x00, 0x00, 0x00, 0x00, 0xce, 0x01, 0x30,
  0x9b, 0x8d, 0xc3, 0x84, 0x49, 0x8f, 0x59, 0x56, 0x00, 0x00, 0x00, 0x00,
  0x00, 0x00, 0x00, 0x42, 0x00, 0x21, 0x99, 0xc1, 0x84, 0x39, 0x73, 0xcc,
  0x01, 0x00, 0x00, 0x00, 0x00, 0x00, 0x00, 0x00, 0x00, 0x00, 0x00, 0x52,
  0x02, 0x40, 0x49, 0x55, 0x22, 0x85, 0x4a, 0x55, 0x4a, 0x33, 0x00, 0x00,
  0x00, 0x00, 0x00, 0x00, 0x00, 0x24, 0x00, 0x2f, 0xa5, 0x22, 0x45, 0x4a,
  0x95, 0x2a, 0x01, 0x00, 0x00, 0x00, 0x00, 0x00, 0x00, 0x00, 0x00, 0x00,
  0x00, 0x52, 0x02, 0x48, 0x49, 0x55, 0xa2, 0x84, 0x4a, 0x55, 0x49, 0x54,
  0x00, 0x00, 0x00, 0x00, 0x00, 0x00, 0x80, 0x14, 0x00, 0x21, 0x95, 0xa2,
  0x44, 0x4a, 0x95, 0x2a, 0x01, 0x00, 0x00, 0x00, 0x00, 0x00, 0x00, 0x00,
  0x00, 0x00, 0x00, 0x8c, 0x01, 0x30, 0x8a, 0x95, 0xc3, 0x85, 0x72, 0x95,
  0x4b, 0x53, 0x00, 0x00, 0x00, 0x00, 0x00, 0x00, 0x00, 0x73, 0x00, 0x21,
  0xb9, 0xc2, 0x85, 0x39, 0x93, 0xcc, 0x01, 0x00, 0x00, 0x00, 0x00, 0x00,
  0x00, 0x00, 0x00, 0x00, 0x00, 0x00, 0x00, 0x00, 0x00, 0x00, 0x02, 0x04,
  0x00, 0x00, 0x00, 0x00, 0x00, 0x00, 0x00, 0x00, 0x00, 0x00, 0x00, 0x00,
  0x00, 0x00, 0x00, 0x00, 0x04, 0x08, 0x01, 0x00, 0x00, 0x00, 0x00, 0x00,
  0x00, 0x00, 0x00, 0x00, 0x00, 0x00, 0x00, 0x00, 0x00, 0x00, 0x00, 0x80,
  0x01, 0x02, 0x00, 0x00, 0x00, 0x00, 0x00, 0x00, 0x00, 0x00, 0x00, 0x00,
  0x00, 0x00, 0x00, 0x00, 0x00, 0x00, 0x02, 0x08, 0x01, 0x00, 0x00, 0x00,
  0x00, 0x00, 0x00, 0x00, 0x00, 0x00, 0x00, 0x00, 0x00, 0x00, 0x00, 0x00,
  0x00, 0x00, 0x00, 0x00, 0x00, 0x00, 0x00, 0x00, 0x00, 0x00, 0x00, 0x00,
  0x00, 0x00, 0x00, 0x00, 0x00, 0x00, 0x00, 0x00, 0x00, 0x00, 0x00, 0x00,
  0x00, 0x00, 0x00, 0x00, 0x00, 0x00, 0x00, 0x00, 0x00, 0x00, 0x00, 0x00,
  0x00, 0x00, 0x00, 0x00, 0x00, 0x00, 0x00, 0x00, 0x00, 0x00, 0x00, 0x00,
  0x00, 0x00, 0x00, 0x00, 0x00, 0x63, 0x00, 0x45, 0x18, 0xbc, 0xc2, 0x2b,
  0x00, 0x04, 0x00, 0x00, 0x00, 0x00, 0x00, 0x00, 0x00, 0x00, 0x00, 0x00,
  0x00, 0x00, 0x00, 0x00, 0x00, 0x00, 0x00, 0x00, 0x00, 0x00, 0x00, 0x00,
  0x00, 0x00, 0x00, 0x00, 0x00, 0x00, 0x80, 0x94, 0x00, 0xa5, 0x04, 0x84,
  0x42, 0x28, 0x00, 0x04, 0x00, 0x00, 0x00, 0x00, 0x00, 0x00, 0x00, 0x00,
  0x00, 0x00, 0x00, 0x00, 0x00, 0x00, 0x00, 0x00, 0x00, 0x00, 0x00, 0x00,
  0x00, 0x00, 0x00, 0x00, 0x00, 0x00, 0x00, 0x00, 0x00, 0x42, 0x00, 0xa0,
  0x18, 0x9c, 0xc2, 0x03, 0x98, 0xd5, 0x31, 0x03, 0x00, 0x00, 0x00, 0x00,
  0x00, 0x00, 0x00, 0x00, 0x00, 0x00, 0x00, 0x00, 0x00, 0x00, 0x00, 0x00,
  0x00, 0x00, 0x00, 0x00, 0x00, 0x00, 0x00, 0x00, 0x00, 0x00, 0x00, 0x84,
  0x00, 0xe0, 0x20, 0x84, 0x42, 0x00, 0x4c, 0x4d, 0xaa, 0x01, 0x00, 0x00,
  0x00, 0x00, 0x00, 0x00, 0x00, 0x00, 0x00, 0x00, 0x00, 0x00, 0x00, 0x00,
  0x00, 0x00, 0x00, 0x00, 0x00, 0x00, 0x00, 0x00, 0x00, 0x00, 0x00, 0x00,
  0x80, 0x94, 0x00, 0x10, 0x25, 0x84, 0x42, 0x00, 0x50, 0x55, 0x2a, 0x02,
  0x00, 0x00, 0x00, 0x00, 0x00, 0x00, 0x00, 0x00, 0x00, 0x00, 0x00, 0x00,
  0x00, 0x00, 0x00, 0x00, 0x00, 0x00, 0x00, 0x00, 0x00, 0x00, 0x00, 0x00,
  0x00, 0x00, 0x00, 0x63, 0x00, 0x10, 0x19, 0x84, 0xde, 0x03, 0x8c, 0x55,
  0xb2, 0x01, 0x00, 0x00, 0x00, 0x00, 0x00, 0x00, 0x00, 0x00, 0x00, 0x00,
  0x00, 0x00, 0x00, 0x00, 0x00, 0x00, 0x00, 0x00, 0x00, 0x00, 0x00, 0x00,
  0x00, 0x00, 0x00, 0x00, 0x00, 0x00, 0x00, 0x00, 0x00, 0x00, 0x00, 0x00,
  0x00, 0x00, 0x00, 0x00, 0x00, 0x00, 0x00, 0x00, 0x00, 0x00, 0x00, 0x00,
  0x00, 0x00, 0x00, 0x00, 0x00, 0x00, 0x00, 0x00, 0x00, 0x00, 0x00, 0x00,
  0x00, 0x00, 0x00, 0x00, 0x00, 0x00, 0x00, 0x00, 0x00, 0x00, 0x00, 0x00,
  0x00, 0x00, 0x00, 0x00, 0x00, 0x00, 0x00, 0x00, 0x00, 0x00, 0x00, 0x00,
  0x00, 0x00, 0x00, 0x00, 0x00, 0x00, 0x00, 0x00, 0x00, 0x00, 0x00, 0x00,
  0x00, 0x00, 0x00, 0x00, 0x00, 0x00, 0x00, 0x00, 0x00, 0x00, 0x00, 0x00,
  0x00, 0x00, 0x00, 0x00, 0x00, 0x00, 0x00, 0x00, 0x00, 0x00, 0x00, 0x00,
  0x00, 0x00, 0x00, 0x00, 0x00, 0x00, 0x00, 0x00, 0x00, 0x00, 0x00, 0x00,
  0x00, 0x00, 0x00, 0x00, 0x00, 0x00, 0x00, 0x00, 0x00, 0x00, 0x00, 0x00,
  0x00, 0x00, 0x00, 0x00, 0x00, 0x00, 0x00, 0x00, 0x00, 0x00, 0x00, 0x00,
  0x00, 0x00, 0x00, 0x00, 0x00, 0x00, 0x00, 0x00, 0x00, 0x00, 0x00, 0x00,
  0x00, 0x00, 0x00, 0x00, 0x00, 0x00, 0x00, 0x00, 0x00, 0x00, 0x00, 0x00,
  0x00, 0x00, 0x00, 0x00, 0x00, 0x00, 0x00, 0x00, 0x00, 0x00, 0x00, 0x00,
  0x00, 0x00, 0x00, 0x00, 0x00, 0x00, 0x00, 0x00, 0x00, 0x00, 0x00, 0x00,
  0x00, 0x00, 0x00, 0x00, 0x00, 0x00, 0x00, 0x00, 0x00, 0x00, 0x00, 0x00,
  0x00, 0x00, 0x00, 0x00, 0x00, 0x00, 0x00, 0x00, 0x00, 0x00, 0x00, 0x00,
  0x00, 0x00, 0x00, 0x00, 0x00, 0x00, 0x00, 0x00, 0x00, 0x00, 0x00, 0x00,
  0x00, 0x00, 0x00, 0x00, 0x00, 0x00, 0x00, 0x00, 0x00, 0x00, 0x00, 0x00,
  0x00, 0x00, 0x00, 0x00, 0x00, 0x00, 0x00, 0x00, 0x00, 0x00, 0x00, 0x00,
  0x00, 0x00, 0x00, 0x00, 0x00, 0x00, 0x00, 0x00, 0x00, 0x00, 0x00, 0x00,
  0x02, 0x01, 0x04, 0x10, 0x01, 0x00, 0x00, 0x00, 0x00, 0x00, 0x00, 0x00,
  0x00, 0x00, 0x10, 0x00, 0x00, 0x00, 0x00, 0x00, 0x00, 0x05, 0x27, 0xe2,
  0x3d, 0xc7, 0x39, 0x38, 0xce, 0xe7, 0x00, 0x00, 0x00, 0x00, 0x70, 0x00,
  0x00, 0x00, 0x01, 0x01, 0x00, 0x10, 0x00, 0x00, 0x00, 0x00, 0x00, 0xe0,
  0x00, 0x00, 0x00, 0x00, 0x02, 0x00, 0x00, 0x00, 0x00, 0x00, 0x00, 0x82,
  0x68, 0x22, 0x44, 0x29, 0x4a, 0x04, 0x11, 0x11, 0x01, 0x00, 0x00, 0x00,
  0xd8, 0x58, 0x99, 0x19, 0x33, 0x71, 0x0c, 0x56, 0x95, 0x03, 0x00, 0x00,
  0x00, 0x10, 0xb9, 0x32, 0x33, 0x66, 0x96, 0x19, 0x00, 0x00, 0x00, 0x00,
  0x00, 0x85, 0xa8, 0xe2, 0x3d, 0x27, 0x3a, 0x74, 0x11, 0x11, 0x01, 0x00,
  0x00, 0x00, 0xa8, 0x54, 0x4d, 0x0a, 0x49, 0x91, 0x0a, 0x33, 0x55, 0x02,
  0x00, 0x00, 0x00, 0x10, 0xa5, 0x9a, 0x14, 0xa9, 0x52, 0x2a, 0x00, 0x00,
  0x00, 0x00, 0x00, 0x80, 0x28, 0x23, 0x44, 0x29, 0x4a, 0x44, 0x11, 0x11,
  0x01, 0x00, 0x00, 0x00, 0xd8, 0x54, 0x51, 0x09, 0x29, 0x91, 0x0a, 0x54,
  0x55, 0x02, 0x00, 0x00, 0x00, 0x10, 0xa5, 0xa2, 0x12, 0xa9, 0x52, 0x2a,
  0x00, 0x00, 0x00, 0x00, 0x00, 0x00, 0x27, 0xe2, 0x45, 0xc9, 0x49, 0x78,
  0x0e, 0xe1, 0x00, 0x00, 0x00, 0x00, 0x70, 0x98, 0x8c, 0x0b, 0x71, 0x71,
  0x0c, 0x53, 0x89, 0x03, 0x00, 0x00, 0x00, 0xe0, 0x38, 0x19, 0x17, 0x66,
  0x94, 0x29, 0x00, 0x00, 0x00, 0x00, 0x00, 0x00, 0x00, 0x00, 0x00, 0x00,
  0x00, 0x00, 0x00, 0x00, 0x00, 0x00, 0x00, 0x00, 0x00, 0x00, 0x00, 0x00,
  0x00, 0x10, 0x00, 0x00, 0x00, 0x00, 0x00, 0x00, 0x00, 0x00, 0x00, 0x00,
  0x00, 0x20, 0x00, 0x00, 0x00, 0x00, 0x00, 0x00, 0x00, 0x00, 0x00, 0x00,
  0x00, 0x00, 0x00, 0x00, 0x00, 0x00, 0x00, 0x00, 0x00, 0x00, 0x00, 0x00,
  0x00, 0x00, 0x00, 0x00, 0x00, 0x00, 0x00, 0x00, 0x00, 0x00, 0x00, 0x00,
  0x00, 0x00, 0x00, 0x20, 0x00, 0x00, 0x00, 0x00, 0x00, 0x00, 0x00, 0x00,
  0x00, 0x00, 0x00, 0x00, 0x00, 0x00, 0x00, 0x00, 0x00, 0x00, 0x00, 0x00,
  0x00, 0x00, 0x00, 0x00, 0x00, 0x00, 0x00, 0x00, 0x00, 0x00, 0x00, 0x00,
  0x00, 0x00, 0x00, 0x00, 0x00, 0x00, 0x00, 0x00, 0x00, 0x00, 0x00, 0x00,
  0x00, 0x00, 0x00, 0x00, 0x00, 0x00, 0x00, 0x00, 0x00, 0x00, 0x00, 0x00,
  0x00, 0x00, 0x00, 0x00, 0x00, 0x00, 0x00, 0x00, 0x00, 0x00, 0x00, 0x00,
  0x00, 0x00, 0x00, 0x00, 0x00, 0x00, 0x00, 0x00, 0x00, 0x00, 0x00, 0x00,
  0x00, 0x00, 0x00, 0x00, 0x00, 0x00, 0x00, 0x00, 0x00, 0x00, 0x00, 0x00,
  0x00, 0x00, 0x00, 0x00, 0x00, 0x00, 0x00, 0x00, 0x00, 0x00, 0x00, 0x00,
  0x00, 0x00, 0x00, 0x00, 0x00, 0x00, 0x00, 0x00, 0x00, 0x00, 0x00, 0x00,
  0x00, 0x00, 0x00, 0x00, 0x00, 0x00, 0x00, 0x00, 0x00, 0x00, 0x00, 0x00,
  0x00, 0x00, 0x00, 0x00, 0x00, 0x00, 0x00, 0x00, 0x00, 0x00, 0x00, 0x00,
  0x00, 0x00, 0x00, 0x00, 0x00, 0x00, 0x00, 0x00, 0x00, 0x00, 0x00, 0x00,
  0x00, 0x00, 0x00, 0x00, 0x00, 0x00, 0x00, 0x00, 0x00, 0x00, 0x00, 0x00,
  0x00, 0x00, 0x00, 0x00, 0x00, 0x00, 0x00, 0x00, 0x00, 0x00, 0x00, 0x00,
  0x00, 0x00, 0x00, 0x00, 0x00, 0x00, 0x00, 0x00, 0x00, 0x00, 0x00, 0x00,
  0x00, 0x00, 0x00, 0x00, 0x00, 0x00, 0x00, 0x00, 0x00, 0x00, 0x00, 0x00,
  0x00, 0x00, 0x00, 0x00, 0x00, 0x00, 0x00, 0x00, 0x00, 0x00, 0x00, 0x00,
  0x00, 0x00, 0x00, 0x00, 0x00, 0x00, 0x00, 0x00, 0x00, 0x00, 0x00, 0x00,
  0x00, 0x00, 0x00, 0x00, 0x00, 0x00, 0x00, 0x00, };
